!!!!SEGMENT: pl-sa--268-a-vii-28--001_siwinski-andrzej--salve-mundi-domina.krn
!!!cenid: 17xx:313
!!!COM: Siwiński, Andrzej
!!!COM-rismid: pe41011487
!!!CDT: <1725->1725
!!!CNT:
!!!OTL: Salve Mundi Domina
!!!PDT: 1729
!!!AGN: Sacred
!!!SMS-siglum: PL-SA
!!!SMS-shelfmark: 268/A VII 28
!!!SMS-shelfwork: 001 W
!!!NIFC-rismid: 1001069563
!!!URL-scan: http://bc.bdsandomierz.pl/dlibra/publication/1751/edition/1719/content
!!!ONB-nifc:
**kern	**fba	**kern	**kern	**kern	**text	**kern	**text	**kern	**text	**kern	**text
*part7	*	*part6	*part5	*part4	*part4	*part3	*part3	*part2	*part2	*part1	*part1
*staff7	*	*staff6	*staff5	*staff4	*staff4	*staff3	*staff3	*staff2	*staff2	*staff1	*staff1
*I"Organo	*	*I"Violino 2do	*I"Violino 1mo	*I"Baſso	*	*I"Tenore	*	*I"Alto	*	*I"Canto	*
*I'org	*	*I'vl 2	*I'vl 1	*I'B	*	*I'T	*	*I'A	*	*I'S	*
*clefF4	*	*clefG2	*clefG2	*clefF4	*	*clefC4	*	*clefC3	*	*clefC1	*
*k[f#c#]	*	*k[f#c#]	*k[f#c#]	*k[f#c#]	*	*k[f#c#]	*	*k[f#c#]	*	*k[f#c#]	*
*b:	*	*b:	*b:	*b:	*	*b:	*	*b:	*	*b:	*
*M2/2	*	*M2/2	*M2/2	*M2/2	*	*M2/2	*	*M2/2	*	*M2/2	*
*met(c|)	*	*met(c|)	*met(c|)	*met(c|)	*	*met(c|)	*	*met(c|)	*	*met(c|)	*
=1	=1	=1	=1	=1	=1	=1	=1	=1	=1	=1	=1
!LO:TX:a:t=Solo	!	!	!LO:TX:a:t=Motetto 1mo	!	!	!	!	!	!	!	!
!LO:TX:rj:b:i:t=Salve Mundi Domina	!	!LO:TX:a:t=Motetto 1mo	!LO:TX:b:i:t=Salve Mundi Domina	!	!	!	!	!	!	!	!
!LO:TX:a:t=Motetto 1mo	!	!LO:TX:b:i:t=Salve Mundi Domina	!LO:SIC:o:s=:v:wszystkie nuty mają caudy z prawej strony	!LO:TX:a:t=Motetto 1mo	!	!LO:TX:a:t=Motetto 1mo	!	!LO:TX:a:t=Motetto 1mo	!	!LO:TX:a:t=Motetto 1mo	!
4D/	.	8a/L	8dd\L	00r	.	00r	.	00r	.	00r	.
.	.	8a/	8dd\	.	.	.	.	.	.	.	.
8r	.	8a/	8dd\	.	.	.	.	.	.	.	.
8D/	.	8dd/J	8ff#\J	.	.	.	.	.	.	.	.
8AA/L	.	4cc#\	4ee\	.	.	.	.	.	.	.	.
8BB/	.	.	.	.	.	.	.	.	.	.	.
8C#/	.	8r	8r	.	.	.	.	.	.	.	.
8AA/J	.	8cc#\	8ee\	.	.	.	.	.	.	.	.
=2	=2	=2	=2	=2	=2	=2	=2	=2	=2	=2	=2
4D/	.	8dd\L	8ff#\L	.	.	.	.	.	.	.	.
.	.	8dd\	8ff#\	.	.	.	.	.	.	.	.
8r	.	8dd\	8ff#\	.	.	.	.	.	.	.	.
8D/	.	8ff#\J	8aa\J	.	.	.	.	.	.	.	.
8G\L	.	4b\	4dd\	.	.	.	.	.	.	.	.
8G\	.	.	.	.	.	.	.	.	.	.	.
8G\	.	8r	8r	.	.	.	.	.	.	.	.
8F#\J	.	8b\	8dd\	.	.	.	.	.	.	.	.
=3	=3	=3	=3	=3	=3	=3	=3	=3	=3	=3	=3
4E\	.	8ee\L	8gg\L	.	.	.	.	.	.	.	.
.	.	8ee\	8gg\	.	.	.	.	.	.	.	.
8r	.	8ee\	8gg\	.	.	.	.	.	.	.	.
8E\	.	8gg\J	8bb\J	.	.	.	.	.	.	.	.
8A\L	.	4cc#\	4ee\	.	.	.	.	.	.	.	.
8A\	.	.	.	.	.	.	.	.	.	.	.
8A\	.	8r	8r	.	.	.	.	.	.	.	.
8G\J	.	8b\	8ee\	.	.	.	.	.	.	.	.
=4	=4	=4	=4	=4	=4	=4	=4	=4	=4	=4	=4
4F#\	6	8dd\L	8ff#\L	.	.	.	.	.	.	.	.
.	.	8dd\	8ff#\	.	.	.	.	.	.	.	.
8r	.	8dd\	8ff#\	.	.	.	.	.	.	.	.
8D\	.	8ff#\J	8aa\J	.	.	.	.	.	.	.	.
!LO:TX:a:t=P:mixed beam:problem	!	!	!	!	!	!	!	!	!	!	!
8G\L	6	16gg\LL	16bb\LL	.	.	.	.	.	.	.	.
.	.	16ff#\	16aa\	.	.	.	.	.	.	.	.
8E\	5	16ee\	16gg\	.	.	.	.	.	.	.	.
.	.	16dd\JJ	16ff#\JJ	.	.	.	.	.	.	.	.
8A\	.	8.cc#\L	8.ee\L	.	.	.	.	.	.	.	.
8AA/J	4	.	.	.	.	.	.	.	.	.	.
.	3	16cc#\Jk	16dd\Jk	.	.	.	.	.	.	.	.
!LO:LB:g=original	!	!	!	!	!	!	!	!	!	!	!
=5	=5	=5	=5	=5	=5	=5	=5	=5-	=5	=5	=5
8D\L	.	4dd\	4dd\	0r	.	0r	.	1r	.	4a\	Sal-
8E\	.	.	.	.	.	.	.	.	.	.	.
8F#\	.	4r	4r	.	.	.	.	.	.	4dd\	-ve
8D\J	.	.	.	.	.	.	.	.	.	.	.
*	*	*	*	*	*	*	*	*	*	*	*ij
8A\L	.	2r	2r	.	.	.	.	.	.	8cc#\	Sal-
*	*	*	*	*	*	*	*	*	*	*	*Xij
8G\	.	.	.	.	.	.	.	.	.	8a\	-ve
!	!	!	!	!	!	!	!	!	!	!LO:SIC:o=:v:kropka przy ćwierćnucie zamiast ligatury z nutą	!
8F#\	.	.	.	.	.	.	.	.	.	[y4dd\	Mun-
8D\J	.	.	.	.	.	.	.	.	.	.	.
=6	=6	=6-	=6	=6	=6	=6	=6	=6	=6	=6	=6
!LO:TX:a:t=P:mixed beam:problem	!	!	!	!	!	!	!	!	!	!	!
!	!	!	!	!	!	!	!	!	!	!LO:N:xstem:cue	!
8F#\L	.	00r	00r	.	.	.	.	4d\	Sal-	8dd\]	.
8G\	.	.	.	.	.	.	.	.	.	16ee\LL	-di
.	.	.	.	.	.	.	.	.	.	16dd\JJ	.
8A\	.	.	.	.	.	.	.	4a\	-ve	8.cc#\	Do-
8AA/J	4	.	.	.	.	.	.	.	.	.	.
.	3	.	.	.	.	.	.	.	.	16cc#\	-mi-
*	*	*	*	*	*	*	*	*	*ij	*	*
8D/L	.	.	.	.	.	.	.	8f#\	Sal-	4dd\	-na
8D/	.	.	.	.	.	.	.	8d\	-ve	.	.
*	*	*	*	*	*	*	*	*	*Xij	*	*
8C#/	.	.	.	.	.	.	.	[y4a\	Mun-	8cc#\	Cae-
8AA/J	.	.	.	.	.	.	.	.	.	8cc#\	-lo-
=7	=7	=7	=7	=7	=7	=7	=7	=7	=7	=7	=7
!	!	!	!	!	!	!	!	!LO:N:xstem:cue	!	!	!
8BB/L	7	.	.	1r	.	2r	.	8a\]	.	8dd\	-ru(m)
16C#/L	.	.	.	.	.	.	.	(16b\LL	-di	8cc#\	Re-
16D/JJ	.	.	.	.	.	.	.	16a\JJ)	.	.	.
!LO:TX:a:t=P:mixed beam:problem	!	!	!	!	!	!	!	!	!	!	!
8E\L	.	.	.	.	.	.	.	8.g#X\	Do-	4b\	-gi-
8EE/J	.	.	.	.	.	.	.	.	.	.	.
.	.	.	.	.	.	.	.	16g#\	-mi-	.	.
!LO:TX:a:t=P:mixed beam:problem	!	!	!	!	!	!	!	!	!	!	!
8AA/L	.	.	.	.	.	4A/	Sal-	4a\	-na	4a\	-na
16D\L	.	.	.	.	.	.	.	.	.	.	.
16E\JJ	.	.	.	.	.	.	.	.	.	.	.
8F#\L	.	.	.	.	.	4d\	-ve	8f#\	Cae-	4r	.
8D\J	.	.	.	.	.	.	.	8f#\	-lo-	.	.
=8	=8	=8	=8	=8	=8	=8	=8	=8	=8	=8	=8
*	*	*	*	*	*	*	*ij	*	*	*	*
8A\L	.	.	.	2r	.	8c#\	Sal-	8e\	-rum	2r	.
8G\	.	.	.	.	.	8A\	-ve	8a\	Re-	.	.
*	*	*	*	*	*	*	*Xij	*	*	*	*
8F#\	7	.	.	.	.	4.d\	Mun-	4a\	-gi-	.	.
8D\J	.	.	.	.	.	.	.	.	.	.	.
!LO:TX:a:t=P:mixed beam:problem	!	!	!	!	!	!	!	!	!	!	!
8F#\L	.	.	.	4D\	Sal-	.	.	4a\	-na	8dd\L	Sal-
8G\	.	.	.	.	.	(16e\LL	-di	.	.	16ee\L	.
.	.	.	.	.	.	16d\JJ)	.	.	.	16dd\JJ	.
8A\	.	.	.	4A\	-ve	8.c#\	Do-	4r	.	16cc#\LL	.
.	.	.	.	.	.	.	.	.	.	16dd\	.
8AA/J	.	.	.	.	.	.	.	.	.	16b\	.
.	.	.	.	.	.	16c#\	-mi-	.	.	16cc#\JJ	.
=9	=9	=9	=9	=9	=9	=9	=9	=9	=9	=9	=9
!	!	!	!	!	!	!	!	!LO:TX:a:t=1	!	!	!
*	*	*	*	*	*ij	*	*	*	*	*	*
8D/L	.	.	.	8F#\	Sal-	4d\	-na	1r	.	4dd\	-ve
8D/	.	.	.	8D\	-ve	.	.	.	.	.	.
*	*	*	*	*	*Xij	*	*	*	*	*	*
8C#/	.	.	.	4.A\	Mun-	8c#\	Cae-	.	.	8a\	Sal-
!	!	!	!	!	!	!	!	!	!	!LO:LB:g=original	!
8AA/J	.	.	.	.	.	8c#\	-lo-	.	.	(16a\LL	-ve
.	.	.	.	.	.	.	.	.	.	16b\JJ)	.
!LO:LB:g=original	!	!	!	!	!	!	!	!	!	!	!
8BB/L	7	.	.	.	.	8d\	-ru(m)	.	.	8cc#\	Mun-
16C#/L	.	.	.	(16B\LL	-di	8c#\	Re-	.	.	8dd\	-di
16D/JJ	.	.	.	16A\JJ)	.	.	.	.	.	.	.
!LO:TX:a:t=P:mixed beam:problem	!	!	!	!	!	!	!	!	!	!	!
8E\L	4	.	.	8.G#X\	Do-	4B\	-gi-	.	.	8.b\	Do-
8EE/J	3	.	.	.	.	.	.	.	.	.	.
.	.	.	.	16G#\	-mi-	.	.	.	.	16a\	-mi-
!	!	!	!LO:LB:g=original	!	!	!	!	!LO:LB:g=original	!	!	!
=10	=10	=10-	=10-	=10	=10	=10	=10	=10	=10	=10	=10
!	!	!	!LO:SIC:o:s=:v:brak pauzy ćwierćnutowej	!	!	!	!	!	!	!	!
4AA/	.	4r	4ryy	4A\	-na	4c#\	-na	4r	.	8a\	-na
.	.	.	.	.	.	.	.	.	.	8dd\	Cae-
8F#\L	6	8dd\L	8aa\L	8F#\	Cae-	8F#/	Cae-	8a\	Cae-	8dd\	-lo-
8F#\J	.	8dd\J	8aa\J	8F#\	-lo-	8A/	-lo-	8a\	-lo-	8dd\	-ru(m)
!LO:TX:a:t=P:mixed beam:problem	!	!	!	!	!	!	!	!	!	!	!
8G\L	.	16gg\LL	16bb\LL	8G\	-rum	8B\	-rum	8g\	-ru(m)	8ee\	Re-
.	.	16ff#\	16aa\	.	.	.	.	.	.	.	.
!	!	!	!	!	!	!LO:LB:g=original	!	!	!	!	!
8E\	.	16ee\	16gg\	8E\	Re-	8c#\	Re-	(16g\LL	Re-	(8ee\	-gi-
.	.	16dd\JJ	16ff#\JJ	.	.	.	.	16f#\JJ)	.	.	.
!	!	!LO:LB:g=original	!	!	!	!	!	!	!	!	!
!	!	!LO:N:vis=8	!	!LO:TX:a:t=P:mixed beam:problem	!	!	!	!	!	!	!
8A\	.	8.cc#\L	16ee\LL	8A\L	-gi-	4A\	-gi-	4e\	-gi-	4cc#\)	.
.	.	.	16gg\	.	.	.	.	.	.	.	.
8AA/J	.	.	16ff#\	8AA/J	.	.	.	.	.	.	.
.	.	16cc#\Jk	16ee\JJ	.	.	.	.	.	.	.	.
=11	=11	=11	=11	=11	=11	=11	=11	=11	=11	=11	=11
4D/	.	8dd\L	8dd\L	4D/	-na	4A\	-na.	4f#\	-na	4dd\	-na.
.	.	8dd\	8ff#\	.	.	.	.	.	.	.	.
8r	.	8dd\	8ff#\	4r	.	4r	.	4r	.	4r	.
8D/	.	8ee\J	8aa\J	.	.	.	.	.	.	.	.
8G\L	.	4b/	4dd\	2r	.	2r	.	2r	.	2r	.
8G\	.	.	.	.	.	.	.	.	.	.	.
8G\	.	8r	8r	.	.	.	.	.	.	.	.
8F#\J	.	8a/	8dd\	.	.	.	.	.	.	.	.
=12	=12	=12	=12	=12-	=12	=12-	=12	=12	=12	=12-	=12
4E\	.	8ee\L	8gg\L	00r	.	00r	.	00r	.	00r	.
.	.	8ee\	8gg\	.	.	.	.	.	.	.	.
8r	.	8ee\	8gg\	.	.	.	.	.	.	.	.
8E\	.	8gg\J	8bb\J	.	.	.	.	.	.	.	.
8A\L	.	4cc#\	4ee\	.	.	.	.	.	.	.	.
8A\	.	.	.	.	.	.	.	.	.	.	.
8A\	.	8r	8r	.	.	.	.	.	.	.	.
8G\J	.	8b\	8ee\	.	.	.	.	.	.	.	.
=13	=13	=13	=13	=13	=13	=13	=13	=13	=13	=13	=13
4F#\	.	8dd\L	8ff#\L	.	.	.	.	.	.	.	.
.	.	8dd\	8ff#\	.	.	.	.	.	.	.	.
8r	.	8dd\	8ff#\	.	.	.	.	.	.	.	.
8D/	.	8ff#\J	8aa\J	.	.	.	.	.	.	.	.
!LO:TX:a:t=P:mixed beam:problem	!	!	!	!	!	!	!	!	!	!	!
8G\L	.	16gg\LL	16bb\LL	.	.	.	.	.	.	.	.
.	.	16ff#\	16aa\	.	.	.	.	.	.	.	.
8E\	6	16ee\	16gg\	.	.	.	.	.	.	.	.
.	5	16dd\JJ	16ff#\JJ	.	.	.	.	.	.	.	.
8A\	4	8.cc#\L	8.ee\L	.	.	.	.	.	.	.	.
8AA/J	3	.	.	.	.	.	.	.	.	.	.
.	.	16cc#\Jk	16dd\Jk	.	.	.	.	.	.	.	.
!LO:LB:g=original	!	!	!	!	!	!	!	!	!	!	!
=14	=14	=14	=14	=14	=14	=14	=14	=14	=14	=14	=14
!	!	!LO:SIC:o:s=:v:niewłaściwe nuty w pierwszej połowie taktu	!LO:SIC:o:s=:v:niewłaściwe nuty w pierwszej połowie taktu	!	!	!	!	!	!	!	!
4D/	.	8cc#\L	8dd\L	.	.	.	.	.	.	.	.
.	.	8a\	8cc#\	.	.	.	.	.	.	.	.
8r	.	8a\	8cc#\	.	.	.	.	.	.	.	.
8AA/	.	8cc#\J	8ee\J	.	.	.	.	.	.	.	.
8D/L	.	4f#/	4a/	.	.	.	.	.	.	.	.
8D/	.	.	.	.	.	.	.	.	.	.	.
8D/	.	8r	8r	.	.	.	.	.	.	.	.
8C#/J	.	8e/	8a/	.	.	.	.	.	.	.	.
=15	=15	=15	=15	=15	=15	=15	=15	=15	=15	=15	=15
4BB/	.	8b\L	8dd\L	.	.	.	.	.	.	.	.
.	.	8b\	8dd\	.	.	.	.	.	.	.	.
8r	.	8b\	8dd\	.	.	.	.	.	.	.	.
8BB/	.	8dd\J	8ff#\J	.	.	.	.	.	.	.	.
8E\L	.	4g/	4b/	.	.	.	.	.	.	.	.
8E\	.	.	.	.	.	.	.	.	.	.	.
8E\	.	8r	8r	.	.	.	.	.	.	.	.
8D\J	.	8f#/	8b\	.	.	.	.	.	.	.	.
=16	=16	=16	=16	=16	=16	=16	=16	=16	=16	=16-	=16
4C#/	6	8a/L	8cc#\L	00r	.	0r	.	0r	.	1r	.
.	.	8a/	8cc#\	.	.	.	.	.	.	.	.
8r	.	8a/	8cc#\	.	.	.	.	.	.	.	.
8AA/	.	8cc#/J	8ee\J	.	.	.	.	.	.	.	.
!	!	!LO:LB:g=original	!	!	!	!	!	!	!	!	!
!LO:TX:a:t=P:mixed beam:problem	!	!	!	!	!	!	!	!	!	!	!
8D/L	6	8a/L	16dd\LL	.	.	.	.	.	.	.	.
.	.	.	16ee\	.	.	.	.	.	.	.	.
8BB/	5	8a/J	16cc#\	.	.	.	.	.	.	.	.
.	.	.	16dd\JJ	.	.	.	.	.	.	.	.
!	!	!	!LO:LB:g=original	!	!	!	!	!	!	!	!
8E/	4	8.g#X/L	8.b\L	.	.	.	.	.	.	.	.
8EE\J	3	.	.	.	.	.	.	.	.	.	.
.	.	16a/Jk	16a\Jk	.	.	.	.	.	.	.	.
=17	=17	=17	=17	=17	=17	=17	=17	=17	=17	=17-	=17
!	!	!LO:N:vis=8	!	!	!	!	!	!	!	!	!
8AA/L	.	4a/	4a/	.	.	.	.	.	.	4e/	Sal-
8BB/	.	.	.	.	.	.	.	.	.	.	.
8C#/	.	4r	4r	.	.	.	.	.	.	4a\	-ve
8AA/J	.	.	.	.	.	.	.	.	.	.	.
*	*	*	*	*	*	*	*	*	*	*	*ij
8E\L	.	2r	2r	.	.	.	.	.	.	8g#X/	Sal-
8D\	.	.	.	.	.	.	.	.	.	8e/	-ve
*	*	*	*	*	*	*	*	*	*	*	*Xij
8C#\	.	.	.	.	.	.	.	.	.	[y4a\	Vir-
8AA\J	.	.	.	.	.	.	.	.	.	.	.
=18	=18	=18	=18	=18	=18	=18	=18	=18-	=18	=18	=18
!LO:TX:a:t=P:mixed beam:problem	!	!	!	!	!	!	!	!	!	!LO:N:xstem:cue	!
8C#\L	6	00r	00r	.	.	1r	.	4A/	Sal-	8a\]	.
8D\	5	.	.	.	.	.	.	.	.	(16b\LL	-go
.	.	.	.	.	.	.	.	.	.	16a\JJ)	.
8E\	4	.	.	.	.	.	.	4e\	-ve	8.g#X\	vir-
8EE/J	3	.	.	.	.	.	.	.	.	.	.
.	.	.	.	.	.	.	.	.	.	16g#\	-gi-
!LO:TX:a:t=P:mixed beam:problem	!	!	!	!	!	!	!	!	!	!	!
*	*	*	*	*	*	*	*	*	*ij	*	*
8AA/L	.	.	.	.	.	.	.	8c#/	Sal-	4a\	-nu(m)
8A\	.	.	.	.	.	.	.	8A/	-ve	.	.
*	*	*	*	*	*	*	*	*	*Xij	*	*
8G#X\	6	.	.	.	.	.	.	[y4e\	Vir-	8g#X\	stel-
8E\J	.	.	.	.	.	.	.	.	.	8g#\	-la
!	!	!	!	!	!	!	!	!	!	!LO:LB:g=original	!
=19	=19	=19	=19	=19	=19	=19	=19	=19	=19	=19	=19
!	!	!	!	!	!	!	!	!LO:N:xstem:cue	!	!	!
8F#\L	7	.	.	.	.	2r	.	8e\]	.	8a\	ma-
16G#X\L	.	.	.	.	.	.	.	(16f#\LL	-go	8g#X\	-tu-
16A\JJ	.	.	.	.	.	.	.	16e\JJ)	.	.	.
!LO:LB:g=original	!	!	!	!	!	!	!	!	!	!	!
!LO:TX:a:t=P:mixed beam:problem	!	!	!	!	!	!	!	!	!	!	!
8B\L	.	.	.	.	.	.	.	8.d#X\	vir-	(8.f#/	-ti-
8BB/J	.	.	.	.	.	.	.	.	.	.	.
.	.	.	.	.	.	.	.	16d#\	-gi-	16e/)	.
!LO:TX:a:t=P:mixed beam:problem	!	!	!	!	!	!	!	!	!	!	!
8E\L	.	.	.	.	.	4E/	Sal-	4e\	-nu(m)	4e/	-na
16AA/L	.	.	.	.	.	.	.	.	.	.	.
16BB/JJ	.	.	.	.	.	.	.	.	.	.	.
8C#/L	.	.	.	.	.	4A/	-ve	8c#/	stel-	4r	.
8AA/J	.	.	.	.	.	.	.	8c#/	-la	.	.
=20	=20	=20	=20	=20	=20	=20	=20	=20	=20	=20	=20
*	*	*	*	*	*	*	*ij	*	*	*	*
8E\L	.	.	.	2r	.	8G#X/	Sal-	8B/	Ma-	2r	.
8D\	.	.	.	.	.	8E/	-ve	8e\	-tu-	.	.
*	*	*	*	*	*	*	*Xij	*	*	*	*
8C#\	6	.	.	.	.	4.A\	Vir-	4e\	-ti-	.	.
8AA\J	.	.	.	.	.	.	.	.	.	.	.
!	!	!	!	!LO:LB:g=original	!	!	!	!	!	!	!
!LO:TX:a:t=P:mixed beam:problem	!	!	!	!	!	!	!	!	!	!	!
8C#\L	6	.	.	4AA/	Sal-	.	.	4e\	-na	8a\L	Sal-
8D\	5	.	.	.	.	(16B\LL	-go	.	.	16b\L	.
.	.	.	.	.	.	16A\JJ)	.	.	.	16a\JJ	.
8E\	4	.	.	4E\	-ve	8.G#X/	Vir-	4r	.	16g#X\LL	.
.	.	.	.	.	.	.	.	.	.	16a\	.
8EE/J	3	.	.	.	.	.	.	.	.	16f#\	.
!	!	!	!	!	!	!	!	!	!	!LO:SIC:o:s=:v:krzyżyk nad nutą	!
.	.	.	.	.	.	16G#/	-gi-	.	.	16g#\JJ	.
=21	=21	=21	=21	=21	=21	=21	=21	=21	=21	=21	=21
!LO:TX:a:t=P:mixed beam:problem	!	!	!	!	!	!	!	!	!	!	!
8AA/L	.	.	.	8C#/	Sal-	4A/	-nu(m)	1r	.	4a\	-ve
8A\	.	.	.	8AA/	-ve	.	.	.	.	.	.
8G#X\	6	.	.	4.E\	Vir-	8G#X/	stel-	.	.	8e/	sal-
8E\J	7	.	.	.	.	8G#/	-la	.	.	(16e/LL	-ve
.	.	.	.	.	.	.	.	.	.	16f#/JJ)	.
8F#\L	.	.	.	.	.	8A/	Ma-	.	.	8g#X\	vir-
16G#X\L	.	.	.	(16F#\LL	-go	8G#X/	-tu-	.	.	8a\	-go
16A\JJ	.	.	.	16E\JJ)	.	.	.	.	.	.	.
!LO:TX:a:t=P:mixed beam:problem	!	!	!	!	!	!	!	!	!	!	!
8B\L	4	.	.	8.D#X\	Vir-	4F#/	-ti-	.	.	8.f#/	vir-
8BB\J	3	.	.	.	.	.	.	.	.	.	.
.	.	.	.	16D#\	-gi-	.	.	.	.	16e/	-gi-
!	!	!	!	!	!	!	!	!LO:LB:g=original	!	!	!
=22	=22	=22-	=22-	=22	=22	=22	=22	=22	=22	=22	=22
4E\	.	4r	4r	4E\	-num	4G#X/	-na	4r	.	4e/	-nu(m)
8C#/L	6	8a/L	8ee\L	8C#/	stel-	8c#\	stel-	8e\	stel-	8ee\	stel-
8C#/J	.	8a/J	8ee\J	8C#/	-la	8A\	-la	8e\	-la	8ee\	-la
!	!	!	!	!	!	!LO:LB:g=original	!	!	!	!	!
!LO:TX:a:t=P:mixed beam:problem	!	!	!	!	!	!	!	!	!	!	!
8D\L	.	16dd\LL	16ff#\LL	8D/	ma-	8d\	ma-	8f#\	Ma-	8dd\	ma-
.	.	16cc#\	16ee\	.	.	.	.	.	.	.	.
8BB\	.	16b\	16dd\	8BB/	-tu-	(16d\LL	-tu-	8f#\	-tu-	8cc#\	-tu-
.	.	16a\JJ	16cc#\JJ	.	.	16c#\JJ)	.	.	.	.	.
!	!	!	!	!LO:TX:a:t=P:mixed beam:problem	!	!	!	!	!	!	!
8E\	.	4g#X/	16b\LL	(8E\L	-ti-	4B\	-ti-	4e\	-ti-	4b\	-ti-
.	.	.	16dd\	.	.	.	.	.	.	.	.
8EE/J	.	.	16cc#\	8EE/J)	.	.	.	.	.	.	.
.	.	.	16b\JJ	.	.	.	.	.	.	.	.
=23	=23	=23	=23	=23	=23	=23	=23	=23	=23	=23	=23
4AA/	.	4a/	4a/	4AA/	-na	4c#\	-na	4e\	-na	4a\	-na
!	!	!	!	!LO:SIC:o:s=:v:w taktach 23-24 chorągiewki od ósemek skierowane w lewo	!	!	!	!	!	!	!
*	*	*	*	*	*	*	*	*	*ij	*	*
8F#\L	6	8ff#\L	8aa\L	8F#\	stel-	8F#/	stel-	8a\	stel-	8dd\	stel-
8F#\J	.	8dd\J	8aa\J	8F#\	-la	8A\	-la	8a\	-la	8dd\	-la
!LO:TX:a:t=P:mixed beam:problem	!	!	!	!	!	!	!	!	!	!	!
!	!	!	!	!	!	!	!	!	!	!LO:LB:g=original	!
8G\L	.	16gg\LL	16bb\LL	8G\	ma-	8B\	ma-	8g\	Ma-	8dd\	ma-
.	.	16ff#\	16aa\	.	.	.	.	.	.	.	.
8E\	.	16ee\	16gg\	8E\	-tu-	8B\	-tu-	(16g\LL	-tu-	8ee\	-tu-
.	.	16dd\JJ	16ff#\JJ	.	.	.	.	16f#\JJ)	.	.	.
!	!	!	!	!LO:TX:a:t=P:mixed beam:problem	!	!	!	!	!	!	!
8A\	.	4cc#\	16ee\LL	8A\L	-ti-	4A/	-ti-	4e\	-ti-	4cc#\	-ti-
.	.	.	16gg\	.	.	.	.	.	.	.	.
8AA/J	4	.	16ff#\	8AA/J	.	.	.	.	.	.	.
.	3	.	16ee\JJ	.	.	.	.	.	.	.	.
=24	=24	=24	=24	=24	=24	=24	=24	=24	=24	=24	=24
4D/	.	4dd\	4dd\	4D/	-na	4A/	-na	4f#\	-na	4dd\	-na
*	*	*	*	*	*	*	*	*	*Xij	*	*
8F#\L	6	8ff#\L	8aa\L	8F#\	stel-	8F#/	stel-	8a\	stel-	8dd\	stel-
8F#\J	.	8ff#\J	8aa\J	8F#\	-la	8A/	-la	8a\	-la	8dd\	-la
!LO:LB:g=original	!	!	!	!	!	!	!	!	!	!	!
!	!	!	!	!	!	!LO:N:vis=8	!	!	!	!	!
4G\	.	4dd\	4gg\	4G\	Ma-	4B\	ma-	4g\	ma-	4dd\	Ma-
4E\	.	4ee\	4gg\	4E\	-tu-	4B\	-tu-	(8g\L	-tu-	4ee\	-tu-
.	.	.	.	.	.	.	.	8f#\J)	.	.	.
!	!	!	!	!LO:LB:g=original	!	!	!	!	!	!	!
=25	=25	=25	=25	=25	=25	=25	=25	=25	=25	=25	=25
*2\right	*	*2\right	*2\right	*2\right	*	*	*	*2\right	*	*2\right	*
2A\	6	2cc#\	2ee\	2A\	-ti-	2A/	-ti-	2e\	-ti-	2cc#\	-ti-
.	5	.	.	.	.	.	.	.	.	.	.
.	4	.	.	.	.	.	.	.	.	.	.
.	3	.	.	.	.	.	.	.	.	.	.
!	!	!	!	!LO:SIC:o:s=:v:na podwójnej kresce taktowej obustronny znak repetycji	!	!	!	!	!	!	!
2D\	.	2dd\	2ff#\	2D/	-na	2A/	-na	2f#\	-na	2dd\	-na
=26||	=26||	=26||	=26||	=26:||:	=26||	=26||	=26||	=26||	=26||	=26||	=26||
*M3/2	*	*M3/2	*M3/2	*M3/2	*	*M3/2	*	*M3/2	*	*M3/2	*
!LO:TX:b:i:t=Salve plena gratia	!	!	!	!	!	!	!	!	!	!	!
!LO:TX:a:t=Solo	!	!LO:TX:b:i:t=Salve plena gratia	!LO:TX:b:i:t=Salve plena Gratia	!LO:TX:a:t=Salve ple\nna gratia\nTacet	!	!LO:TX:a:t=Salve plena\nTC.	!	!LO:TX:a:t=Salve plena gra\nTacet	!	!	!
!	!	!	!	!	!	!	!	!	!	!LO:N:vis=00	!
1B\	.	2r	2r	1.ryy	.	1.ryy	.	1.ryy	.	00.r	.
!	!	!	!LO:TX:a:t=Solo	!	!	!	!	!	!	!	!
.	.	2b\	2b\	.	.	.	.	.	.	.	.
2A#X\	6	2cc#\	2cc#\	.	.	.	.	.	.	.	.
=27	=27	=27	=27	=27	=27	=27	=27	=27	=27	=27	=27
2B\	.	2dd\	2dd\	1.ryy	.	1.ryy	.	1.ryy	.	.	.
2A#X\	6	4cc#\	4cc#\	.	.	.	.	.	.	.	.
.	.	4dd\	4dd\	.	.	.	.	.	.	.	.
2Gn\	7	4b\	4b\	.	.	.	.	.	.	.	.
.	6	4cc#\	4cc#\	.	.	.	.	.	.	.	.
!	!	!LO:LB:g=original	!	!	!	!	!	!	!	!	!
=28	=28	=28	=28	=28	=28	=28	=28	=28	=28	=28	=28
1F#\	.	2a#X/	2a#X/	1.ryy	.	1.ryy	.	1.ryy	.	.	.
.	.	2f#/	2f#/	.	.	.	.	.	.	.	.
4B\	.	4b\	4b\	.	.	.	.	.	.	.	.
4An\	.	4cc#\	4cc#\	.	.	.	.	.	.	.	.
!	!	!	!LO:LB:g=original	!	!	!	!	!	!	!	!
=29	=29	=29	=29	=29	=29	=29	=29	=29	=29	=29	=29
4G\	.	4dd\	4dd\	1.ryy	.	1.ryy	.	1.ryy	.	.	.
4E\	.	4b\	4ee\	.	.	.	.	.	.	.	.
2F#\	4	2.a#X/	2.cc#X\	.	.	.	.	.	.	.	.
2FF#/	3	.	.	.	.	.	.	.	.	.	.
.	.	4a#/	4cc#\	.	.	.	.	.	.	.	.
=30	=30	=30	=30	=30	=30	=30	=30	=30	=30	=30	=30
2BB/	.	2b/	2b\	1.ryy	.	1.ryy	.	1.ryy	.	2r	.
!	!	!	!	!	!	!	!	!	!	!LO:SIC:o:s=:v:nieczytelna notatka, prawdopodobnie "Solo"	!
2B\	.	2r	2r	.	.	.	.	.	.	2b\	Sal-
2A#X\	6	2r	2r	.	.	.	.	.	.	2cc#\	-ve
=31	=31	=31	=31	=31	=31	=31	=31	=31	=31	=31	=31
2B\	.	1.r	1.r	1.ryy	.	1.ryy	.	1.ryy	.	2dd\	ple-
2A#X\	6	.	.	.	.	.	.	.	.	4cc#\	.
.	.	.	.	.	.	.	.	.	.	4dd\	.
2Gn\	7	.	.	.	.	.	.	.	.	(4b\	-na
.	6	.	.	.	.	.	.	.	.	4cc#\)	.
!LO:LB:g=original!	!	!	!	!	!	!	!	!	!	!	!
=32	=32	=32	=32-	=32	=32	=32	=32	=32	=32	=32	=32
1F#\	.	2r	2r	1.ryy	.	1.ryy	.	1.ryy	.	4.a#X\	gra-
.	.	.	.	.	.	.	.	.	.	8g#X/	-ti-
.	.	2b\	2b\	.	.	.	.	.	.	2f#/	-a
4B\	.	2cc#\	2cc#\	.	.	.	.	.	.	2r	.
4An\	.	.	.	.	.	.	.	.	.	.	.
=33	=33	=33	=33	=33	=33	=33	=33	=33	=33	=33	=33
4G\	.	4dd\	4dd\	1.ryy	.	1.ryy	.	1.ryy	.	1.r	.
4E\	.	4b\	4ee\	.	.	.	.	.	.	.	.
2F#\	.	2.a#X/	2.dd\	.	.	.	.	.	.	.	.
.	4	.	.	.	.	.	.	.	.	.	.
2FF#/	3	.	.	.	.	.	.	.	.	.	.
.	.	4a#/	4cc#X\	.	.	.	.	.	.	.	.
=34	=34	=34	=34	=34	=34	=34	=34	=34	=34	=34	=34
2BB/	.	2b/	2b\	1.ryy	.	1.ryy	.	1.ryy	.	2r	.
2B\	.	2r	2r	.	.	.	.	.	.	2b\	Sal-
2A#X\	6	2r	2r	.	.	.	.	.	.	2cc#\	-ve
=35	=35	=35-	=35	=35	=35	=35	=35	=35	=35	=35	=35
!	!	!LO:N:vis=00	!LO:N:vis=00	!	!	!	!	!	!	!	!
2B\	.	00.r	00.r	1.ryy	.	1.ryy	.	1.ryy	.	2dd\	ple-
2A#X\	6	.	.	.	.	.	.	.	.	4cc#\	.
.	.	.	.	.	.	.	.	.	.	4dd\	.
!	!	!	!	!	!	!	!	!	!	!LO:LB:g=original	!
2Gn\	7	.	.	.	.	.	.	.	.	(4b\	-na
.	6	.	.	.	.	.	.	.	.	4cc#\)	.
=36	=36	=36	=36	=36	=36	=36	=36	=36	=36	=36	=36
4F#\	.	.	.	1.ryy	.	1.ryy	.	1.ryy	.	2.a#X\	gra-
4E#X\	.	.	.	.	.	.	.	.	.	.	.
4F#\	.	.	.	.	.	.	.	.	.	.	.
4G#X\	.	.	.	.	.	.	.	.	.	4g#X/	-ti-
4A#X\	.	.	.	.	.	.	.	.	.	2f#/	-a
4F#\	.	.	.	.	.	.	.	.	.	.	.
=37	=37	=37	=37	=37	=37	=37	=37	=37	=37	=37	=37
2B\	.	.	.	1.ryy	.	1.ryy	.	1.ryy	.	2r	.
2r	.	.	.	.	.	.	.	.	.	4ff#\	cla-
.	.	.	.	.	.	.	.	.	.	4gg\	.
2r	.	.	.	.	.	.	.	.	.	4ee\	.
.	.	.	.	.	.	.	.	.	.	4ff#\	.
=38	=38	=38	=38	=38	=38	=38	=38	=38	=38	=38	=38
2r	.	.	.	1.ryy	.	1.ryy	.	1.ryy	.	2.dd\	.
4B\	.	.	.	.	.	.	.	.	.	.	.
4c#\	.	.	.	.	.	.	.	.	.	4cc#\	.
4An\	.	.	.	.	.	.	.	.	.	2b\	-ra
4B\	.	.	.	.	.	.	.	.	.	.	.
!LO:LB:g=original	!	!	!	!	!	!	!	!	!	!	!
=39	=39	=39	=39	=39	=39	=39	=39	=39	=39	=39	=39
!	!	!LO:N:vis=00	!LO:N:vis=00	!	!	!	!	!	!	!	!
2G\	.	00.r	00.r	1.ryy	.	1.ryy	.	1.ryy	.	2r	.
2r	.	.	.	.	.	.	.	.	.	4ee\	cla-
.	.	.	.	.	.	.	.	.	.	4ff#\	.
2r	.	.	.	.	.	.	.	.	.	4dd\	.
.	.	.	.	.	.	.	.	.	.	4ee\	.
=40	=40	=40	=40	=40	=40	=40	=40	=40	=40	=40	=40
2r	.	.	.	1.ryy	.	1.ryy	.	1.ryy	.	2.cc#\	.
4A\	.	.	.	.	.	.	.	.	.	.	.
4G\	.	.	.	.	.	.	.	.	.	4cc#\	-ra
2F#\	6	.	.	.	.	.	.	.	.	2dd\	lux
=41	=41	=41	=41	=41	=41	=41	=41	=41	=41	=41	=41
2G\	6	.	.	1.ryy	.	1.ryy	.	1.ryy	.	8ee\L	di-
.	.	.	.	.	.	.	.	.	.	8ff#\	.
.	5	.	.	.	.	.	.	.	.	8dd\	.
.	.	.	.	.	.	.	.	.	.	8ee\J	.
2A\	4	.	.	.	.	.	.	.	.	1cc#\t	-vi-
2AA/	3	.	.	.	.	.	.	.	.	.	.
=42	=42	=42	=42	=42	=42	=42	=42	=42	=42	=42	=42
2D\	.	.	.	1.ryy	.	1.ryy	.	1.ryy	.	2dd\	-na
2E\	.	.	.	.	.	.	.	.	.	2r	.
2F#\	.	.	.	.	.	.	.	.	.	2r	.
=43	=43	=43	=43	=43	=43	=43	=43	=43	=43	=43	=43
!	!	!LO:N:vis=00	!LO:N:vis=00	!	!	!	!	!	!	!	!
2BB/	.	00.r	00.r	1.ryy	.	1.ryy	.	1.ryy	.	2r	.
2r	.	.	.	.	.	.	.	.	.	4ff#\	cla-
.	.	.	.	.	.	.	.	.	.	4gg\	.
2r	.	.	.	.	.	.	.	.	.	4ee\	.
.	.	.	.	.	.	.	.	.	.	4ff#\	.
=44	=44	=44	=44	=44	=44	=44	=44	=44	=44	=44	=44
2r	.	.	.	1.ryy	.	1.ryy	.	1.ryy	.	(2.dd\	.
4B\	.	.	.	.	.	.	.	.	.	.	.
4c#\	.	.	.	.	.	.	.	.	.	4cc#\)	.
4An\	.	.	.	.	.	.	.	.	.	2b\	-ra
4B\	.	.	.	.	.	.	.	.	.	.	.
!	!	!	!	!	!	!	!	!	!	!LO:LB:g=original	!
=45	=45	=45	=45	=45	=45	=45	=45	=45	=45	=45	=45
2G\	6	.	.	1.ryy	.	1.ryy	.	1.ryy	.	2r	.
2r	.	.	.	.	.	.	.	.	.	4ee\	cla-
.	.	.	.	.	.	.	.	.	.	4dd\	.
2r	.	.	.	.	.	.	.	.	.	4cc#\	.
.	.	.	.	.	.	.	.	.	.	4b\	.
=46	=46	=46	=46	=46	=46	=46	=46	=46	=46	=46	=46
2F#\	6	.	.	1.ryy	.	1.ryy	.	1.ryy	.	2.a#X\	-ra
2G#X\	6	.	.	.	.	.	.	.	.	.	.
.	.	.	.	.	.	.	.	.	.	4b\	.
2A#X\	6	.	.	.	.	.	.	.	.	2cc#\	lux
!LO:LB:g=original	!	!	!	!	!	!	!	!	!	!	!
=47	=47	=47	=47	=47	=47	=47	=47	=47	=47	=47	=47
4B\	.	1.r	1.r	1.ryy	.	1.ryy	.	1.ryy	.	8dd\L	di-
.	.	.	.	.	.	.	.	.	.	8cc#\	.
4E\	.	.	.	.	.	.	.	.	.	8b\	.
.	.	.	.	.	.	.	.	.	.	8cc#\J	.
2F#\	.	.	.	.	.	.	.	.	.	1a#X\	-vi-
.	4	.	.	.	.	.	.	.	.	.	.
2FF#/	3	.	.	.	.	.	.	.	.	.	.
=48	=48	=48	=48	=48	=48	=48	=48	=48	=48	=48	=48
2BB/	.	2r	2r	1.ryy	.	1.ryy	.	1.ryy	.	2b\	-na.
2B\	.	2b\	2b\	.	.	.	.	.	.	2r	.
2A#X\	6	2cc#\	2cc#\	.	.	.	.	.	.	2r	.
=49	=49	=49	=49	=49	=49	=49	=49	=49	=49	=49-	=49
!	!	!	!	!	!	!	!	!	!	!LO:N:vis=00	!
2B\	.	2dd\	2dd\	1.ryy	.	1.ryy	.	1.ryy	.	00.r	.
2A#X\	6	4cc#\	4cc#\	.	.	.	.	.	.	.	.
.	.	4dd\	4dd\	.	.	.	.	.	.	.	.
2Gn\	7	4b\	4b\	.	.	.	.	.	.	.	.
.	6	4cc#\	4cc#\	.	.	.	.	.	.	.	.
=50	=50	=50	=50	=50	=50	=50	=50	=50	=50	=50	=50
1F#\	.	2a#X/	2a#X/	1.ryy	.	1.ryy	.	1.ryy	.	.	.
.	.	2f#/	2f#/	.	.	.	.	.	.	.	.
4B\	.	4b\	4b\	.	.	.	.	.	.	.	.
4An\	.	4cc#\	4cc#\	.	.	.	.	.	.	.	.
!	!	!LO:LB:g=original	!	!	!	!	!	!	!	!	!
=51	=51	=51	=51	=51	=51	=51	=51	=51	=51	=51	=51
4G\	.	4dd\	4dd\	1.ryy	.	1.ryy	.	1.ryy	.	.	.
4E\	.	4b\	4ee\	.	.	.	.	.	.	.	.
2F#\	.	2.a#X/	2.cc#X\	.	.	.	.	.	.	.	.
2FF#/	.	.	.	.	.	.	.	.	.	.	.
.	.	4a#/	4b\	.	.	.	.	.	.	.	.
=52	=52	=52	=52	=52	=52	=52	=52	=52	=52	=52	=52
1BB/	.	1b\	1b\	1.ryy	.	1.ryy	.	1.ryy	.	.	.
2AA#X/	.	2ff#\	2ff#\	.	.	.	.	.	.	.	.
!	!	!	!LO:LB:g=original	!	!	!	!	!	!	!	!
=53	=53	=53	=53	=53	=53	=53	=53	=53	=53	=53	=53
!	!	!	!	!	!	!	!	!	!	!LO:N:vis=0	!
4BB/	.	4ee\	4ee\	1.ryy	.	1.ryy	.	1.ryy	.	0.r	.
4E\	.	4dd\	4dd\	.	.	.	.	.	.	.	.
2F#\	.	2.cc#\	2.cc#\	.	.	.	.	.	.	.	.
.	4	.	.	.	.	.	.	.	.	.	.
2FF#/	3	.	.	.	.	.	.	.	.	.	.
.	.	4b\	4b\	.	.	.	.	.	.	.	.
=54	=54	=54	=54	=54	=54	=54	=54	=54	=54	=54	=54
1.BB/	.	1.b\	1.b\	1.ryy	.	1.ryy	.	1.ryy	.	.	.
!LO:LB:g=original	!	!	!	!	!	!	!	!LO:LB:g=original	!	!	!
=55||	=55||	=55||	=55||	=55||	=55||	=55||	=55||	=55||	=55||	=55||	=55||
*M2/2	*	*M2/2	*M2/2	*M2/2	*	*M2/2	*	*M2/2	*	*M2/2	*
*met(c|)	*	*met(c|)	*met(c|)	*met(c|)	*	*met(c|)	*	*met(c|)	*	*met(c|)	*
*clefC1	*	*	*	*	*	*	*	*	*	*	*
*k[f#c#]	*	*	*	*	*	*	*	*	*	*	*
!	!	!	!LO:TX:b:i:t=Mundi in auxilium	!	!	!	!	!	!	!	!
!	!	!LO:TX:a:t=Vivace	!LO:TX:a:t=Tutti	!	!	!	!	!LO:TX:a:t=vivace	!	!	!
*^	*	*	*	*	*	*	*	*	*	*	*
8dd\L	2ryy	.	0r	0r	0r	.	1ryy	.	2r	.	8dd\	mun-
8dd\	.	.	.	.	.	.	.	.	.	.	8dd\	-di
8dd\	.	.	.	.	.	.	.	.	.	.	8dd\	in
8cc#\J	.	.	.	.	.	.	.	.	.	.	8cc#\	au-
8.b/L	8g\L	.	.	.	.	.	.	.	8g\	Mun-	8.b\	-xi-
.	8g\	.	.	.	.	.	.	.	8g\	-di	.	.
16b/Jk	.	.	.	.	.	.	.	.	.	.	16b\	-li-
4b/	8g\	.	.	.	.	.	.	.	8g\	in	4b\	-um
.	8f#\J	.	.	.	.	.	.	.	8f#\	au-	.	.
=56	=56	=56	=56	=56	=56	=56	=56	=56	=56	=56	=56	=56
8ee/L	8.e\L	.	.	.	.	.	1ryy	.	8.e\	-xi-	8ee\	Mun-
8ee/	.	.	.	.	.	.	.	.	.	.	8ee\	-di
.	16e\Jk	.	.	.	.	.	.	.	16e\	-li-	.	.
8ee/	4e\	.	.	.	.	.	.	.	4e\	-um	8ee\	in
8dd/J	.	.	.	.	.	.	.	.	.	.	8dd\	au-
*	*	*	*	*	*	*	*	*	*	*ij	*	*
8.cc#/L	8a\L	.	.	.	.	.	.	.	8a\	Mun-	8.cc#\	-xi-
.	8a\	.	.	.	.	.	.	.	8a\	-di	.	.
16cc#/Jk	.	.	.	.	.	.	.	.	.	.	16cc#\	-li-
4cc#/	8a\	.	.	.	.	.	.	.	8a\	in	4cc#\	-um
.	8g\J	.	.	.	.	.	.	.	8g\	au-	.	.
!	!	!	!	!	!	!	!	!	!	!	!LO:LB:g=original	!
=57	=57	=57	=57	=57	=57	=57	=57	=57	=57	=57	=57	=57
8b/L	8.f#\L	.	1r	1r	1r	.	1ryy	.	8.f#\	-xi-	8.b\	do-
8cc#/J	.	.	.	.	.	.	.	.	.	.	.	.
.	16f#\Jk	.	.	.	.	.	.	.	16f#\	-li-	16cc#\	-mi-
*	*	*	*	*	*	*	*	*	*	*Xij	*	*
4.dd/	4.f#\	.	.	.	.	.	.	.	4.f#\	-um	4.dd\	-na
8ee/	8g\	.	.	.	.	.	.	.	8g\	fes-	8ee\	fes-
4cc#/	4e\	.	.	.	.	.	.	.	4e\	-ti-	4cc#\	-ti-
=58	=58	=58	=58	=58	=58	=58	=58-	=58	=58	=58	=58	=58
8dd/	8f#\L	.	2r	2r	2r	.	8d\	Mun-	4f#\	-na	4dd\	-na
*clefC4	*	*	*	*	*	*	*	*	*	*	*	*
4.ryy	8d\	.	.	.	.	.	8d\	-di	.	.	.	.
.	8d\	.	.	.	.	.	8d\	in	4r	.	4r	.
.	8c#\J	.	.	.	.	.	8c#\	au-	.	.	.	.
*clefF4	*	*	*	*	*	*	*	*	*	*	*	*
*k[f#c#]	*	*	*	*	*	*	*	*	*	*	*	*
!	!	!	!	!	!LO:SIC:o:s=:v:3 ósemki mają chorągiewki skierowane w lewo	!	!	!	!	!	!	!
8G\L	2ryy	.	4b\	4dd\	8G\	Mun-	8.B\	-xi-	8g\	mun-	8dd\	Mun-
8G\	.	.	.	.	8G\	-di	.	.	8g\	-di	8dd\	-di
.	.	.	.	.	.	.	16B\	-li-	.	.	.	.
8G\	.	.	8r	8r	8G\	in	4B\	-um	8g\	in	8dd\	in
8F#\J	.	.	8dd\	8dd\	8F#\	au-	.	.	8g\	au-	8cc#\	au-
*v	*v	*	*	*	*	*	*	*	*	*	*	*
!LO:PB:g=original	!	!	!	!	!	!	!	!	!LO:LB:g=original	!	!
=59	=59	=59	=59	=59	=59	=59	=59	=59	=59	=59	=59
!LO:SIC:o:s=:v:przed tym taktem cztery ósemki wykreślone	!	!	!	!	!	!	!	!	!	!	!
*	*	*	*	*	*	*	*ij	*	*	*	*
8.E\L	.	4ee\	4gg\	8.E\	-xi-	8e\	Mun-	8.g\	-xi-	8.b\	-xi-
.	.	.	.	.	.	8e\	-di	.	.	.	.
16E\Jk	.	.	.	16E\	-li-	.	.	16g\	-li-	16b\	-li-
4E\	.	8r	8r	4E\	-um	8e\	in	4g\	-um	4b\	-um
.	.	8ee\	8gg\	.	.	8d\	au-	.	.	.	.
8A\L	.	4cc#\	4ee\	8A\	Mun-	8.c#\	-xi-	8a\	mun-	8ee\	Mun-
8A\	.	.	.	8A\	-di	.	.	8a\	-di	8ee\	-di
.	.	.	.	.	.	16c#\	-li-	.	.	.	.
8A\	.	8r	8r	8A\	in	4c#\	-um	8a\	in	8ee\	in
8G\J	.	8b\	8ee\	8G\	au-	.	.	8a\	au-	(16b\LL	au-
.	.	.	.	.	.	.	.	.	.	16cc#\JJ)	.
*	*	*	*	*	*	*	*Xij	*	*	*	*
=60	=60	=60	=60	=60	=60	=60	=60	=60	=60	=60	=60
!	!	!LO:TX:a:t=P:mixed beam:problem	!	!	!	!	!	!	!	!	!
8.F#\L	6	8dd\L	16aa\LL	8.F#\	-xi-	2r	.	8.a\	-xi-	8.dd\	-xi-
.	.	.	16gg\	.	.	.	.	.	.	.	.
.	.	8cc#\	16ff#\	.	.	.	.	.	.	.	.
16F#\Jk	.	.	16gg\JJ	16F#\	-li-	.	.	16a\	-li-	16dd\	-li-
!	!	!	!LO:TX:a:t=P:mixed beam:problem	!	!	!	!	!	!	!	!
4F#\	.	8dd\	8aa\L	4F#\	-um	.	.	4a\	-um	4dd\	-um
.	.	8d/J	8a/J	.	.	.	.	.	.	.	.
!	!	!	!	!LO:LB:g=original	!	!	!	!	!	!	!
8G\L	.	8g/L	8b\L	8G\	Do-	8.G/	Do-	8.g\	do-	8.b\	do-
8A\	.	8a/J	8cc#\J	8A\	-mi-	.	.	.	.	.	.
.	.	.	.	.	.	16A\	-mi-	16g\	-mi-	16cc#\	-mi-
8B\	.	[y4b/	4dd\	8B\	-na	[4B\	-na	[y4g\	-na	[y4dd\	-na
8G\J	.	.	.	8G\	fes-	.	.	.	.	.	.
=61	=61	=61	=61	=61	=61	=61	=61	=61	=61	=61	=61
!LO:TX:a:t=P:mixed beam:problem	!	!	!	!LO:TX:a:t=P:mixed beam:problem	!	!	!	!	!	!LO:N:xstem:cue	!
!	!	!LO:N:xstem:cue	!	!	!	!	!	!LO:N:xstem:cue	!	!	!
8A\L	.	8b/]	16dd\LL	8A\L	-ti-	8B\]	.	8g\]	.	8dd\]	.
.	.	.	16ff#\	.	.	.	.	.	.	.	.
8G\	.	8a/	16ee\	8G\	.	8B\	fes-	8f#\	fes-	8ee\	fes-
.	.	.	16dd\JJ	.	.	.	.	.	.	.	.
8A\	.	4a/	16cc#\LL	8A\	.	4A\	-ti-	4e\	-ti-	4cc#\	-ti-
.	.	.	16dd\	.	.	.	.	.	.	.	.
8AA/J	.	.	16b\	8AA/J	.	.	.	.	.	.	.
.	.	.	16cc#\JJ	.	.	.	.	.	.	.	.
4D\	.	8f#/L	8dd\L	4D/	-na	4A\	-na	4f#\	-na	4dd\	-na
.	.	8f#/	8dd\	.	.	.	.	.	.	.	.
!LO:TX:a:t=Solo	!	!	!	!	!	!	!	!	!	!	!
4r	.	8f#/	8dd\	4r	.	4r	.	4r	.	4r	.
.	.	8f#/J	8cc#\J	.	.	.	.	.	.	.	.
!	!	!LO:LB:g=original	!	!	!	!	!	!	!	!LO:LB:g=original	!
=62	=62	=62	=62	=62	=62	=62	=62	=62	=62	=62	=62
8G\L	.	4g/	4b\	0r	.	0r	.	0r	.	0r	.
8G\	.	.	.	.	.	.	.	.	.	.	.
8G\	.	4r	4r	.	.	.	.	.	.	.	.
8F#\J	6	.	.	.	.	.	.	.	.	.	.
4E\	.	8g/L	8ee\L	.	.	.	.	.	.	.	.
.	.	8g/	8ee\	.	.	.	.	.	.	.	.
4r	.	8g/	8ee\	.	.	.	.	.	.	.	.
.	.	8g/J	8dd\J	.	.	.	.	.	.	.	.
=63	=63	=63	=63	=63	=63	=63	=63	=63	=63	=63	=63
8A\L	.	4a/	4cc#\	.	.	.	.	.	.	.	.
8A\	.	.	.	.	.	.	.	.	.	.	.
8A\	.	4r	4r	.	.	.	.	.	.	.	.
8G\J	.	.	.	.	.	.	.	.	.	.	.
!	!	!	!LO:LB:g=original	!	!	!	!	!	!	!	!
4F#\	6	8dd\L	8ff#\L	.	.	.	.	.	.	.	.
.	.	8dd\	8ff#\	.	.	.	.	.	.	.	.
4r	.	8dd\	8ff#\	.	.	.	.	.	.	.	.
.	.	8cc#\J	8ee\J	.	.	.	.	.	.	.	.
!LO:LB:g=original	!	!	!	!	!	!	!	!	!	!	!
=64	=64	=64	=64	=64	=64	=64	=64	=64	=64	=64	=64
!LO:TX:a:t=P:mixed beam:problem	!	!	!	!	!	!	!	!	!	!	!
8C#\L	7	8b/L	16dd\LL	1r	.	1r	.	1r	.	2r	.
.	.	.	16ee\	.	.	.	.	.	.	.	.
8D\	.	8a/J	16cc#\	.	.	.	.	.	.	.	.
.	.	.	16dd\JJ	.	.	.	.	.	.	.	.
8E\	4	4g#X/	8.b/L	.	.	.	.	.	.	.	.
8EE/J	3	.	.	.	.	.	.	.	.	.	.
.	.	.	16a/Jk	.	.	.	.	.	.	.	.
!LO:TX:a:t=P:mixed beam:problem	!	!	!	!	!	!	!	!	!	!	!
8AA/L	.	4a/	4a/	.	.	.	.	.	.	8ee\	Mun-
*clefC1	*	*	*	*	*	*	*	*	*	*	*
*k[f#c#]	*	*	*	*	*	*	*	*	*	*	*
8ee\	.	.	.	.	.	.	.	.	.	8ee\	-di
8ee\	.	4r	4r	.	.	.	.	.	.	8ee\	in
!LO:TX:a:t=Tutti	!	!	!	!	!	!	!	!	!	!	!
8dd\J	.	.	.	.	.	.	.	.	.	8dd\	au-
!	!	!	!	!	!	!LO:LB:g=original	!	!	!	!	!
=65	=65	=65	=65	=65	=65	=65	=65	=65	=65	=65	=65
8cc#\L	.	4cc#\	4ee\	8A\	Mun-	8c#\	mun-	8e\	Mun-	8.cc#\	-xi-
*clefF4	*	*	*	*	*	*	*	*	*	*	*
8A\	.	.	.	8A\	-di	8c#\	-di	8e\	-di	.	.
.	.	.	.	.	.	.	.	.	.	16cc#\	-li-
8A\	.	8r	8r	8A\	in	8c#\	in	8e\	in	4cc#\	-um
8G#X\J	6	8b/	8ee\	8G#X\	au-	8B\	au-	8e\	au-	.	.
8.F#\L	.	4a/	4dd\	8.F#\	-xi-	8.A\	-xi-	8.f#\	-xi-	8dd\	Mun-
.	.	.	.	.	.	.	.	.	.	8dd\	-di
16F#\Jk	.	.	.	16F#\	-li-	16A\	-li-	16f#\	-li-	.	.
4F#\	.	8r	8r	4F#\	-um	4A\	-um	4f#\	-um	8dd\	in
.	.	8a/	8dd\	.	.	.	.	.	.	8cc#\	au-
!	!	!	!	!	!	!	!	!LO:LB:g=original	!	!	!
=66	=66	=66	=66	=66	=66	=66	=66	=66	=66	=66	=66
!	!	!	!LO:SIC:s=:v:4b	!	!	!	!	!	!	!	!
*	*	*	*	*	*ij	*	*ij	*	*	*	*
8G#X\L	.	4e/	4cc#\	8G#X\	Mun-	8B\	mun-	8e\	Mun-	8.b\	-xi-
8G#\	.	.	.	8G#\	-di	8B\	-di	8e\	-di	.	.
.	.	.	.	.	.	.	.	.	.	16b\	-li-
8G#\	.	8r	8r	8G#\	in	8B\	in	8e\	in	4b\	-um
8F#\J	.	8f#/	8a/	8F#\	au-	8A\	au-	8f#X\	au-	.	.
!	!	!LO:TX:a:t=P:mixed beam:problem	!LO:TX:a:t=P:mixed beam:problem	!	!	!	!	!	!	!	!
8E\L	.	8g#X/L	8b/L	8.E\	-xi-	8.B\	-xi-	8.g#X\	-xi-	2r	.
8E\J	.	8ee\J	8gg#X\J	.	.	.	.	.	.	.	.
.	.	.	.	16E\	-li-	16B\	-li-	16g#\	-li-	.	.
4E\	.	4ee\	4gg#\	4E\	-um	4B\	-um	4g#\	-um	.	.
*	*	*	*	*	*Xij	*	*Xij	*	*	*	*
!	!	!	!	!LO:LB:g=original	!	!	!	!	!	!	!
=67	=67	=67	=67	=67	=67	=67	=67	=67	=67	=67	=67
*	*	*	*	*	*	*	*	*	*ij	*	*
8D\L	.	8dd\L	8ff#\L	8D\	Do-	8d\	Do-	8f#\	Mun-	8a\	mun-
8E\	.	8ee\	8gg#X\	8E\	-mi-	8e\	-mi-	8f#\	-di	8a\	-di
8F#\	.	8ff#\	8aa\	8F#\	-na	8d\	-na	8f#\	in	8a\	in
8D\J	.	8dd\J	8ff#\J	8D\	fes-	8c#\	fes-	8f#\	au-	8a\	au-
!LO:TX:a:t=P:mixed beam:problem	!	!	!	!LO:TX:a:t=P:mixed beam:problem	!	!	!	!	!	!	!
8E\L	.	8b\L	8gg#X\L	8E\L	-ti-	(8B\L	-ti-	(8g#X\L	-xi-	(8b\L	-xi-
8D\	.	8cc#\J	8aa\J	8D\	.	8c#\J)	.	8a\J)	.	8cc#\J)	.
8E\	4	4b\	4gg#X\	8E\	.	4B\	-na	4g#X\	-li-	4b\	-li-
8EE/J	3	.	.	8EE/J	.	.	.	.	.	.	.
=68	=68	=68	=68	=68	=68	=68	=68	=68	=68	=68	=68
!LO:TX:a:t=P:mixed beam:problem	!	!	!	!	!	!	!	!	!	!	!
8AA/L	.	4cc#\	4aa\	8AA/	-na	8A\	.	8a\	-um	8a\	-um
*	*	*	*	*	*	*	*	*	*Xij	*	*
8A\J	.	.	.	8A\	fes-	8A\	fe-	8e\	Do-	8cc#\	do-
!	!	!	!	!	!	!LO:LB:g=original	!	!	!	!LO:LB:g=original	!
4G#X\	6	4r	4r	4G#X\	-ti-	4B\	-ti-	4e\	-mi-	4b\	-mi-
!LO:LB:g=original	!	!	!	!	!	!	!	!	!	!	!
!	!	!	!	!LO:SIC:o:s=:v:chorągiewka zwrócona w lewo	!	!	!	!	!	!	!
8A\L	.	2r	2r	8A\	-na	8c#\	-na	8e\	-na	8cc#\	-na
*	*	*	*	*	*ij	*	*ij	*	*	*	*
8D\J	.	.	.	8D\	fes-	8d\	fe-	8f#\	fes-	8a\	fes-
4E\	4	.	.	4E\	-ti-	4B\	-ti-	4e\	-ti-	4b\	-ti-
.	3	.	.	.	.	.	.	.	.	.	.
=69	=69	=69	=69	=69	=69	=69	=69	=69	=69	=69	=69
4AA/	.	8r	8r	4AA/	-na	4A/	-na	4e\	-na	4a\	-na
*	*	*	*	*	*Xij	*	*Xij	*	*	*	*
!	!	!LO:N:vis=4	!LO:SIC:s=:v:16aa	!	!	!	!	!	!	!	!
.	.	8ee\	16gg\LL	.	.	.	.	.	.	.	.
.	.	.	16gg#X\JJ	.	.	.	.	.	.	.	.
!	!	!LO:LB:g=original	!	!	!	!	!	!	!	!	!
8r	.	16dd\LL	16ff#\LL	4r	.	4r	.	4r	.	4r	.
.	.	16cc#\	16ee\	.	.	.	.	.	.	.	.
8D\	.	16b\	16dd\	.	.	.	.	.	.	.	.
.	.	16a\JJ	16cc#\JJ	.	.	.	.	.	.	.	.
!LO:TX:a:t=P:mixed beam:problem	!	!	!	!	!	!	!	!	!	!	!
8E\L	.	8g#X/L	8b\L	2r	.	2r	.	2r	.	2r	.
8D\	.	8a/	8cc#\J	.	.	.	.	.	.	.	.
8E\	4	8a/	8.b/L	.	.	.	.	.	.	.	.
8EE/J	3	8g#X/J	.	.	.	.	.	.	.	.	.
.	.	.	16a/Jk	.	.	.	.	.	.	.	.
=70	=70	=70	=70	=70	=70	=70	=70	=70	=70	=70	=70
8AA/L	.	4a/	4a/	8r	.	8r	.	8r	.	8r	.
!	!	!	!	!LO:SIC:o:s=:v:takty70=72 chorągiewki od ósemek skierowane w lewo	!	!	!	!	!	!	!
8D/J	.	.	.	8d\	fes-	8d\	fes-	8f#\	fes-	8a\	do-
!	!	!	!	!	!	!	!	!LO:LB:g=original	!	!	!
4C#/	6	4r	4r	4c#\	-ti-	4c#\	-ti-	4e\	-ti-	8a\	-mi-
.	.	.	.	.	.	.	.	.	.	8a\	-na
8D\L	.	2r	2r	8d\	-na	8d\	-na	8f#\	-na	4b\	fes-
*	*	*	*	*	*ij	*	*ij	*	*ij	*	*
8G\J	.	.	.	8G\	fes-	8B\	fes-	8g\	fes-	.	.
4A\	4	.	.	4A\	-ti-	4c#\	-ti-	4e\	-ti-	4a\	-ti-
.	3	.	.	.	.	.	.	.	.	.	.
!	!	!	!LO:LB:g=original	!	!	!	!	!	!	!	!
=71	=71	=71	=71	=71	=71	=71	=71	=71	=71	=71	=71
4D/	.	8r	8r	4D/	-na	4d\	-na	4f#\	-na	4a\	-na
*	*	*	*	*	*Xij	*	*Xij	*	*Xij	*	*
.	.	8a/	16dd\LL	.	.	.	.	.	.	.	.
.	.	.	16cc#\JJ	.	.	.	.	.	.	.	.
8r	.	16g/LL	16b/LL	4r	.	4r	.	4r	.	4r	.
.	.	16f#/	16a/	.	.	.	.	.	.	.	.
8G\	.	16e/	16g/	.	.	.	.	.	.	.	.
!	!	!LO:SIC:o:s=:v:po nucie kreska taktowa	!	!	!	!	!	!	!	!	!
.	.	16d/JJ	16f#/JJ	.	.	.	.	.	.	.	.
!LO:TX:a:t=P:mixed beam:problem	!	!	!	!	!	!	!	!	!	!	!
8A\L	.	8.c#/L	8e/L	2r	.	2r	.	2r	.	2r	.
8G\	.	.	8f#/	.	.	.	.	.	.	.	.
.	.	16d/K	.	.	.	.	.	.	.	.	.
8A\	4	8d/	8e/	.	.	.	.	.	.	.	.
!	!	!LO:SIC:o:s=:v:po nucie brak kreski taktowej	!	!	!	!	!	!	!	!	!
8AA/J	3	8c#/J	8d/J	.	.	.	.	.	.	.	.
=72	=72	=72	=72	=72	=72	=72	=72	=72	=72	=72	=72
!	!	!LO:TX:a:t=P:mixed beam:problem	!LO:TX:a:t=P:mixed beam:problem	!	!	!	!	!	!	!	!
4D/	.	8d/L	8d/L	8r	.	8r	.	8r	.	8r	.
*	*	*	*	*	*ij	*	*	*	*	*	*
.	.	8ff#\J	8aa\J	8d\	fes-	8d\	fes-	8f#\	fes-	8a\	do-
4C#/	6	4ee\	4aa\	4c#\	-ti-	4c#\	-ti-	4e\	-ti-	4a\	-mi-
!LO:TX:a:t=P:mixed beam:problem	!	!	!	!	!	!	!	!	!	!	!
8D\L	6	8ff#\L	8aa\L	8d\	-na	8d\	-na	8f#\	-na	8a\	-na
*	*	*	*	*	*Xij	*	*ij	*	*ij	*	*
8G\	5	8b\J	8dd\J	8G\	fes-	8B\	fes-	8g\	fes-	8b\	fes-
!	!	!	!	!LO:LB:g=original	!	!	!	!	!	!	!
8A\	4	8a/L	8.cc#\L	4A\	-ti-	4c#\	-ti-	4e\	-ti-	4a\	-ti-
8AA\J	3	8e/J	.	.	.	.	.	.	.	.	.
.	.	.	16cc#\Jk	.	.	.	.	.	.	.	.
=73	=73	=73	=73	=73	=73	=73	=73	=73	=73	=73	=73
4D/	.	4f#/	4dd\	4D/	-na	4d\	-na	4f#\	-na	4a\	-na
*	*	*	*	*	*	*	*Xij	*	*Xij	*	*
4r	.	4r	4r	4r	.	4r	.	4r	.	4r	.
!	!	!	!	!LO:SIC:o:s=:v:na podwójnej kresce taktowej obustronny znak repetycji	!	!	!	!	!	!	!
2r	.	2r	2r	2r	.	2r	.	2r	.	2r	.
!LO:LB:g=original	!	!	!	!	!	!	!	!	!	!	!
=74||	=74||	=74||	=74||	=74:||:	=74||	=74||	=74||	=74||	=74||	=74||	=74||
*M2/2	*	*M2/2	*M2/2	*M2/2	*	*M2/2	*	*M2/2	*	*M2/2	*
*met(c|)	*	*met(c|)	*met(c|)	*met(c|)	*	*met(c|)	*	*met(c|)	*	*met(c|)	*
!LO:TX:b:i:t=Ab aeterno	!	!LO:TX:b:i:t=Ab aeterno	!	!	!	!	!	!	!	!	!
!LO:TX:a:t=Solo	!	!LO:TX:a:t=Solo	!LO:TX:b:i:t=Ab aeterno Dominus	!LO:TX:a:t=S.	!	!LO:TX:a:t=Ab Aeterno\nTC.	!	!LO:TX:a:t=Ab aeterno\nTacet	!	!LO:TX:a:t=Ab Aeterno\nTC.	!
4A\	.	2r	8r	1r	.	1ryy	.	1ryy	.	1ryy	.
!	!	!	!LO:TX:a:t=Solo	!	!	!	!	!	!	!	!
.	.	.	16cc#\LL	.	.	.	.	.	.	.	.
.	.	.	16dd\JJ	.	.	.	.	.	.	.	.
8r	.	.	16ee\LL	.	.	.	.	.	.	.	.
.	.	.	16dd\	.	.	.	.	.	.	.	.
8G#X\	6	.	16cc#\	.	.	.	.	.	.	.	.
.	.	.	16b\JJ	.	.	.	.	.	.	.	.
!	!	!	!LO:TX:a:t=P:mixed beam:problem	!	!	!	!	!	!	!	!
4A\	.	8r	8a/L	.	.	.	.	.	.	.	.
.	.	16cc#\LL	8aa\J	.	.	.	.	.	.	.	.
.	.	16dd\JJ	.	.	.	.	.	.	.	.	.
8r	.	16ee\LL	16gg#X\LL	.	.	.	.	.	.	.	.
.	.	16dd\	16ff#\	.	.	.	.	.	.	.	.
8E\	.	16cc#\	16ee\	.	.	.	.	.	.	.	.
.	.	16b\JJ	16gg#X\JJ	.	.	.	.	.	.	.	.
=75	=75	=75	=75	=75	=75	=75	=75	=75	=75	=75	=75
!	!	!	!LO:TX:a:t=P:mixed beam:problem	!LO:SIC:o:s=:v:chorągiewka zwrócona w lewo	!	!	!	!	!	!	!
4AA/	.	4cc#\	8aa\L	8A\	Ab	1ryy	.	1ryy	.	1ryy	.
.	.	.	8a/J	(16B\LL	ae-	.	.	.	.	.	.
.	.	.	.	16A\JJ)	.	.	.	.	.	.	.
8r	.	4r	4r	(16G#X\LL	-ter-	.	.	.	.	.	.
.	.	.	.	16A\JJ)	.	.	.	.	.	.	.
8E\	.	.	.	(16F#\LL	-no	.	.	.	.	.	.
.	.	.	.	16G#\JJ)	.	.	.	.	.	.	.
!LO:TX:a:t=P:mixed beam:problem	!	!	!	!	!	!	!	!	!	!	!
8A\L	.	2r	2r	16A\	Do-	.	.	.	.	.	.
.	.	.	.	16A\	-mi-	.	.	.	.	.	.
8AA/	.	.	.	8A\	-nus	.	.	.	.	.	.
8C#/	.	.	.	8r	.	.	.	.	.	.	.
8AA/J	.	.	.	16C#/	te	.	.	.	.	.	.
.	.	.	.	16C#/	prae-	.	.	.	.	.	.
=76	=76	=76	=76	=76	=76	=76	=76	=76	=76	=76	=76
!	!	!LO:SIC:o:s=:v:brak taktu pauzy	!	!	!	!	!	!	!	!	!
4BB/	6	1ryy	1r	16D\LL	-or-	1ryy	.	1ryy	.	1ryy	.
.	.	.	.	16C#\	.	.	.	.	.	.	.
.	.	.	.	16D\	.	.	.	.	.	.	.
.	.	.	.	16E\JJ	.	.	.	.	.	.	.
4D/	6	.	.	16F#\LL	.	.	.	.	.	.	.
.	.	.	.	16E\	.	.	.	.	.	.	.
.	.	.	.	16F#\	.	.	.	.	.	.	.
.	.	.	.	16G#X\JJ	.	.	.	.	.	.	.
8C#/L	.	.	.	8A\	.	.	.	.	.	.	.
8D/	.	.	.	8D\	-di-	.	.	.	.	.	.
8E/	4	.	.	4E\	-na-	.	.	.	.	.	.
8EE/J	3	.	.	.	.	.	.	.	.	.	.
=77	=77	=77	=77	=77	=77	=77	=77	=77	=77	=77	=77
!	!	!LO:SIC:o:s=:v:2 takty dopisane powyżej systemu	!	!	!	!	!	!	!	!	!
4AA/	.	2ryy	8r	4AA/	-vit	1ryy	.	1ryy	.	1ryy	.
.	.	.	16cc#\LL	.	.	.	.	.	.	.	.
.	.	.	16dd\JJ	.	.	.	.	.	.	.	.
8r	.	.	16ee\LL	4r	.	.	.	.	.	.	.
.	.	.	16dd\	.	.	.	.	.	.	.	.
8G#X\	6	.	16cc#\	.	.	.	.	.	.	.	.
.	.	.	16b\JJ	.	.	.	.	.	.	.	.
!	!	!	!LO:TX:a:t=P:mixed beam:problem	!	!	!	!	!	!	!	!
4A\	.	8ryy	8a/L	2r	.	.	.	.	.	.	.
.	.	16cc#\LLyy	8aa\J	.	.	.	.	.	.	.	.
.	.	16dd\JJyy	.	.	.	.	.	.	.	.	.
!	!	!	!LO:SIC:o:s=:v:krzyżyk nad nutą	!	!	!	!	!	!	!	!
8r	.	16ee\LLyy	16gg#X\LL	.	.	.	.	.	.	.	.
.	.	16dd\yy	16ff#\	.	.	.	.	.	.	.	.
8E\	.	16cc#\yy	16ee\	.	.	.	.	.	.	.	.
!	!	!	!LO:SIC:o:s=:v:krzyżyk nad nutą	!	!	!	!	!	!	!	!
.	.	16b\JJyy	16gg#X\JJ	.	.	.	.	.	.	.	.
!	!	!	!LO:LB:g=original	!LO:LB:g=original	!	!	!	!	!	!	!
=78	=78	=78	=78	=78	=78	=78	=78	=78	=78	=78	=78
!	!	!	!LO:TX:a:t=P:mixed beam:problem	!	!	!	!	!	!	!	!
4AA/	.	4cc#\yy	8aa\L	8A\	ab	1ryy	.	1ryy	.	1ryy	.
.	.	.	8a/J	(16B\LL	ae-	.	.	.	.	.	.
.	.	.	.	16A\JJ)	.	.	.	.	.	.	.
8r	.	4ryy	4r	(16G#X\LL	-ter-	.	.	.	.	.	.
.	.	.	.	16A\JJ)	.	.	.	.	.	.	.
8E\	.	.	.	(16F#\LL	-no	.	.	.	.	.	.
.	.	.	.	16G#\JJ)	.	.	.	.	.	.	.
!LO:TX:a:t=P:mixed beam:problem	!	!	!	!	!	!	!	!	!	!	!
8A\L	.	2ryy	2r	16A\	Do-	.	.	.	.	.	.
.	.	.	.	16A\	-mi-	.	.	.	.	.	.
8AA/	.	.	.	8A\	-nus	.	.	.	.	.	.
8C#/	.	.	.	8r	.	.	.	.	.	.	.
8AA/J	.	.	.	16C#/	te	.	.	.	.	.	.
.	.	.	.	16C#/	prae-	.	.	.	.	.	.
!LO:LB:g=original	!	!LO:LB:g=original	!	!	!	!	!	!	!	!	!
=79	=79	=79	=79	=79	=79	=79	=79	=79	=79	=79	=79
4BB/	.	0r	0r	16D\LL	-or-	1ryy	.	1ryy	.	1ryy	.
.	.	.	.	16C#\	.	.	.	.	.	.	.
.	.	.	.	16D\	.	.	.	.	.	.	.
.	.	.	.	16E\JJ	.	.	.	.	.	.	.
4D/	.	.	.	16F#\LL	.	.	.	.	.	.	.
.	.	.	.	16E\	.	.	.	.	.	.	.
.	.	.	.	16F#\	.	.	.	.	.	.	.
.	.	.	.	16G#X\JJ	.	.	.	.	.	.	.
!	!	!	!	!LO:SIC:o:s=:v:2 nuty - chorągiewka w lewo	!	!	!	!	!	!	!
8C#/L	.	.	.	8A\	.	.	.	.	.	.	.
8D/	.	.	.	8D\	-di-	.	.	.	.	.	.
8E/	.	.	.	4E\	-na-	.	.	.	.	.	.
.	4	.	.	.	.	.	.	.	.	.	.
8EE/J	3	.	.	.	.	.	.	.	.	.	.
=80	=80	=80	=80	=80	=80	=80	=80	=80	=80	=80	=80
4AA/	.	.	.	4AA/	-vit	1ryy	.	1ryy	.	1ryy	.
8C#/L	6	.	.	8A\	Mat-	.	.	.	.	.	.
8D/J	.	.	.	(16B\LL	-re(m)	.	.	.	.	.	.
.	.	.	.	16A\JJ)	.	.	.	.	.	.	.
4E\	.	.	.	8G#X\	U-	.	.	.	.	.	.
.	.	.	.	(16A\LL	-ni-	.	.	.	.	.	.
.	.	.	.	16G#X\JJ)	.	.	.	.	.	.	.
!	!	!	!	!LO:LB:g=original	!	!	!	!	!	!	!
8BB/L	5	.	.	8F#\L	-ge-	.	.	.	.	.	.
8C#/J	6	.	.	16G#\L	.	.	.	.	.	.	.
.	.	.	.	16A\JJ	.	.	.	.	.	.	.
=81	=81	=81	=81	=81	=81	=81	=81	=81	=81	=81	=81
4D#X/	6	2r	2r	16B\LL	.	1ryy	.	1ryy	.	1ryy	.
.	.	.	.	16A\	.	.	.	.	.	.	.
.	.	.	.	16B\	.	.	.	.	.	.	.
.	.	.	.	16c#\JJ	.	.	.	.	.	.	.
8r	.	.	.	16B\LL	.	.	.	.	.	.	.
.	.	.	.	16A\	.	.	.	.	.	.	.
!	!	!	!	!LO:SIC:o:s=:v:krzyżyk nad nutą	!	!	!	!	!	!	!
8BB/	.	.	.	16G#\	.	.	.	.	.	.	.
.	.	.	.	16F#\JJ	.	.	.	.	.	.	.
!	!	!	!	!LO:SIC:o:s=:v:3nuty - chorągiewki w lewo	!	!	!	!	!	!	!
4E\	.	16g#X/LL	16b/LL	16E\	.	.	.	.	.	.	.
.	.	16f#/	16a/	16E\	-ni-	.	.	.	.	.	.
.	.	16g#/	16b/	8E\	-ti	.	.	.	.	.	.
.	.	16a/JJ	16cc#/JJ	.	.	.	.	.	.	.	.
8r	.	16g#/LL	16b/LL	4r	.	.	.	.	.	.	.
.	.	16f#/	16a/	.	.	.	.	.	.	.	.
!	!	!	!LO:SIC:o:s=:v:krzyżyk pod nutą	!	!	!	!	!	!	!	!
8B\	.	16e/	16g#X/	.	.	.	.	.	.	.	.
.	.	16d/JJ	16f#/JJ	.	.	.	.	.	.	.	.
=82	=82	=82	=82	=82	=82	=82	=82	=82	=82	=82	=82
4E\	.	4e/	4e/	4r	.	1ryy	.	1ryy	.	1ryy	.
8C#/L	.	4r	4r	8A\	Mat-	.	.	.	.	.	.
8Dn/J	.	.	.	(16B\LL	-re(m)	.	.	.	.	.	.
.	.	.	.	16A\JJ)	.	.	.	.	.	.	.
4E\	.	2r	2r	8G#X\	u-	.	.	.	.	.	.
.	.	.	.	16A\LL	-ni-	.	.	.	.	.	.
.	.	.	.	16G#\JJ	.	.	.	.	.	.	.
8BB/L	5	.	.	8F#\L	-ge-	.	.	.	.	.	.
8C#/J	6	.	.	16G#X\L	.	.	.	.	.	.	.
.	.	.	.	16A\JJ	.	.	.	.	.	.	.
=83	=83	=83	=83	=83	=83	=83	=83	=83	=83	=83	=83
4D#X/	#	0r	0r	16B\LL	.	1ryy	.	1ryy	.	1ryy	.
.	.	.	.	16A\	.	.	.	.	.	.	.
.	.	.	.	16B\	.	.	.	.	.	.	.
.	.	.	.	16c#\JJ	.	.	.	.	.	.	.
8r	.	.	.	16B\LL	.	.	.	.	.	.	.
.	.	.	.	16A\	.	.	.	.	.	.	.
!	!	!	!	!LO:SIC:s=:v:16G#	!	!	!	!	!	!	!
8BB/	.	.	.	16G\	.	.	.	.	.	.	.
.	.	.	.	16F#\JJ	.	.	.	.	.	.	.
!LO:TX:a:t=P:mixed beam:problem	!	!	!	!	!	!	!	!	!	!	!
8E\L	.	.	.	16E\	.	.	.	.	.	.	.
.	.	.	.	16E\	-ni-	.	.	.	.	.	.
8AA/	.	.	.	8E\	-ti	.	.	.	.	.	.
!	!	!	!	!LO:LB:g=original	!	!	!	!	!	!	!
8C#/	.	.	.	8r	.	.	.	.	.	.	.
8AA/J	.	.	.	16C#/	Ver-	.	.	.	.	.	.
.	.	.	.	16C#/	-bi	.	.	.	.	.	.
=84	=84	=84	=84	=84	=84	=84	=84	=84	=84	=84	=84
4BB/	6	.	.	16D\LL	quo	1ryy	.	1ryy	.	1ryy	.
.	.	.	.	16C#\	.	.	.	.	.	.	.
.	.	.	.	16D\	.	.	.	.	.	.	.
.	.	.	.	16E\JJ	.	.	.	.	.	.	.
4Dn/	6	.	.	16F#\LL	.	.	.	.	.	.	.
.	.	.	.	16E\	.	.	.	.	.	.	.
.	.	.	.	16F#\	.	.	.	.	.	.	.
.	.	.	.	16G#X\JJ	.	.	.	.	.	.	.
8C#/L	6	.	.	8A\	.	.	.	.	.	.	.
8D/	5	.	.	8D\	cre-	.	.	.	.	.	.
8E/	4	.	.	4E\	-a-	.	.	.	.	.	.
8EE/J	3	.	.	.	.	.	.	.	.	.	.
!LO:LB:g=original	!	!	!	!	!	!	!	!	!	!	!
=85	=85	=85	=85	=85	=85	=85	=85	=85	=85	=85	=85
8AA/L	.	1r	1r	4AA/	-vit	1ryy	.	1ryy	.	1ryy	.
8BB/	.	.	.	.	.	.	.	.	.	.	.
8C#/	.	.	.	8r	.	.	.	.	.	.	.
8AA/J	.	.	.	16C#/	Ver-	.	.	.	.	.	.
.	.	.	.	16C#/	-bi	.	.	.	.	.	.
4BB/	6	.	.	16D\LL	quo	.	.	.	.	.	.
.	.	.	.	16C#\	.	.	.	.	.	.	.
.	.	.	.	16D\	.	.	.	.	.	.	.
.	.	.	.	16E\JJ	.	.	.	.	.	.	.
4Dn/	.	.	.	16F#\LL	.	.	.	.	.	.	.
.	.	.	.	16E\	.	.	.	.	.	.	.
.	.	.	.	16F#\	.	.	.	.	.	.	.
.	.	.	.	16G#X\JJ	.	.	.	.	.	.	.
=86	=86	=86	=86	=86	=86	=86	=86	=86	=86	=86	=86
!LO:TX:a:t=P:mixed beam:problem	!	!	!	!	!	!	!	!	!	!	!
8C#\L	.	2r	2r	8A\	.	1ryy	.	1ryy	.	1ryy	.
8D\	.	.	.	8D\	cre-	.	.	.	.	.	.
8E\	4	.	.	4E\	-a-	.	.	.	.	.	.
8EE/J	3	.	.	.	.	.	.	.	.	.	.
4AA/	.	16r	16r	4AA/	-vit	.	.	.	.	.	.
.	.	16cc#\LL	16ee\LL	.	.	.	.	.	.	.	.
.	.	16cc#\	16ee\	.	.	.	.	.	.	.	.
.	.	16cc#\JJ	16ee\JJ	.	.	.	.	.	.	.	.
!	!	!	!	!LO:SIC:o:s=:v:podwójna kreska taktowa	!	!	!	!	!	!	!
8r	.	16cc#\LL	16ee\LL	4r	.	.	.	.	.	.	.
.	.	16cc#\	16ee\	.	.	.	.	.	.	.	.
8AA/	.	16cc#\	16ee\	.	.	.	.	.	.	.	.
.	.	16cc#\JJ	16ee\JJ	.	.	.	.	.	.	.	.
=87	=87	=87	=87	==87	=87	=87	=87	=87	=87	=87	=87
4BB/	.	16cc#\LL	16ee\LL	1ryy	.	1ryy	.	1ryy	.	1ryy	.
.	.	16b\	16dd\	.	.	.	.	.	.	.	.
.	.	16b\	16dd\	.	.	.	.	.	.	.	.
.	.	16b\JJ	16dd\JJ	.	.	.	.	.	.	.	.
8r	.	16b\LL	16dd\LL	.	.	.	.	.	.	.	.
.	.	16b\	16dd\	.	.	.	.	.	.	.	.
8BB/	.	16b\	16dd\	.	.	.	.	.	.	.	.
.	.	16b\JJ	16dd\JJ	.	.	.	.	.	.	.	.
4AA/	.	16a/LL	16cc#\LL	.	.	.	.	.	.	.	.
.	.	16a/	16cc#\	.	.	.	.	.	.	.	.
.	.	16a/	16cc#\	.	.	.	.	.	.	.	.
.	.	16a/JJ	16cc#\JJ	.	.	.	.	.	.	.	.
8r	.	16a/LL	16cc#\LL	.	.	.	.	.	.	.	.
.	.	16a/	16cc#\	.	.	.	.	.	.	.	.
8AA/	.	16a/	16cc#\	.	.	.	.	.	.	.	.
.	.	16a/JJ	16cc#\JJ	.	.	.	.	.	.	.	.
=88	=88	=88	=88	=88	=88	=88	=88	=88	=88	=88	=88
4E\	.	16g#X/LL	16b\LL	1ryy	.	1ryy	.	1ryy	.	1ryy	.
.	.	16g#/	16b\	.	.	.	.	.	.	.	.
.	.	16g#/	16b\	.	.	.	.	.	.	.	.
.	.	16g#/JJ	16b\JJ	.	.	.	.	.	.	.	.
8r	.	16g#/LL	16b\LL	.	.	.	.	.	.	.	.
.	.	16g#/	16b\	.	.	.	.	.	.	.	.
8E\	.	16g#/	16b\	.	.	.	.	.	.	.	.
.	.	16g#/JJ	16b\JJ	.	.	.	.	.	.	.	.
4AA/	.	4a/	16a/LL	.	.	.	.	.	.	.	.
.	.	.	16ee/	.	.	.	.	.	.	.	.
.	.	.	16ff#/	.	.	.	.	.	.	.	.
!	!	!	!LO:SIC:o:s=:v:krzyżyk pod nutą	!	!	!	!	!	!	!	!
.	.	.	16gg#X/JJ	.	.	.	.	.	.	.	.
!	!	!LO:LB:g=original	!	!	!	!	!	!	!	!	!
8r	.	8r	8aa\L	.	.	.	.	.	.	.	.
8A\	.	8e/	8cc#\J	.	.	.	.	.	.	.	.
!	!	!	!LO:LB:g=original	!	!	!	!	!	!	!	!
=89	=89	=89	=89	=89	=89	=89	=89	=89	=89	=89	=89
!LO:TX:a:t=P:mixed beam:problem	!	!	!	!LO:SIC:o:s=:v:na kresce taktowej obustronny znak repetycji	!	!	!	!	!	!	!
8F#\L	6	16f#/LL	16dd\LL	1ryy	.	1ryy	.	1ryy	.	1ryy	.
.	.	16g#X/	16ee\	.	.	.	.	.	.	.	.
8D\	5	16a/	16cc#\	.	.	.	.	.	.	.	.
.	.	16b/JJ	16dd\JJ	.	.	.	.	.	.	.	.
8E\	4	8.g#X/L	8.b/L	.	.	.	.	.	.	.	.
8EE/J	3	.	.	.	.	.	.	.	.	.	.
.	.	16g#/Jk	16b/Jk	.	.	.	.	.	.	.	.
4AA/	.	4a/	4a/	.	.	.	.	.	.	.	.
4r	.	4r	4r	.	.	.	.	.	.	.	.
!LO:LB:g=original	!	!	!	!LO:LB:g=original	!	!	!	!	!	!LO:LB:g=original	!
=90||	=90||	=90||	=90||	=90:||:	=90||	=90||	=90||	=90||	=90||	=90||	=90||
*M2/2	*	*M2/2	*M2/2	*M2/2	*	*M2/2	*	*M2/2	*	*M2/2	*
*met(c|)	*	*met(c|)	*met(c|)	*met(c|)	*	*met(c|)	*	*met(c|)	*	*met(c|)	*
!	!	!	!LO:TX:a:t=Can&colon;	!	!	!	!	!LO:TX:a:t=con vivace	!	!	!
2F#\	#5	0r	0r	0r	.	0r	.	0r	.	8cc#\	Ter-
.	.	.	.	.	.	.	.	.	.	8cc#\	-ram
.	.	.	.	.	.	.	.	.	.	8a\	pon-
.	.	.	.	.	.	.	.	.	.	(16b\LL	-tu(m)
.	.	.	.	.	.	.	.	.	.	16cc#\JJ)	.
2BB/	#	.	.	.	.	.	.	.	.	16dd\	ae-
.	.	.	.	.	.	.	.	.	.	16dd\	-the-
.	.	.	.	.	.	.	.	.	.	8dd\	-ra
.	.	.	.	.	.	.	.	.	.	8dd\	te
.	.	.	.	.	.	.	.	.	.	8cc#\	pul-
=91	=91	=91	=91	=91	=91	=91	=91	=91	=91	=91	=91
8AAn/L	.	.	.	.	.	.	.	.	.	(16b\LL	-chra(m)
.	.	.	.	.	.	.	.	.	.	16cc#\JJ)	.
8BB/J	.	.	.	.	.	.	.	.	.	(16a\LL	or-
.	.	.	.	.	.	.	.	.	.	16b\JJ)	.
.	4	.	.	.	.	.	.	.	.	.	.
4C#X/	3	.	.	.	.	.	.	.	.	4g#X/	-na-
4FF#X/	.	.	.	.	.	.	.	.	.	4f#/	-vit
4r	.	.	.	.	.	.	.	.	.	4r	.
=92	=92	=92	=92	=92	=92	=92	=92	=92	=92	=92	=92
!LO:SIC:o:s=:v:w partii B oraz vn I i II o takt (pauz) za dużo	!	!LO:SIC:o:s=:v: takt zbędny	!LO:SIC:o:s=:v: takt zbędny	!LO:SIC:o:s=:v: takt zbędny	!	!LO:SIC:o:s=:v:w partii B oraz vn I i II o takt (pauz) za dużo	!	!LO:SIC:o:s=:v:w partii B oraz vn I i II o takt (pauz) za dużo	!	!LO:SIC:o:s=:v:w partii B oraz vn I i II o takt (pauz) za dużo	!
1ryy	.	1r	1r	1r	.	1ryy	.	1ryy	.	1ryy	.
=93||	=93||	=93||	=93||	=93||	=93||	=93||	=93||	=93||	=93||	=93||	=93||
*clefC1	*	*	*	*	*	*	*	*	*	*	*
*M2/2	*	*M2/2	*M2/2	*M2/2	*	*M2/2	*	*M2/2	*	*M2/2	*
*met(c|)	*	*met(c|)	*met(c|)	*met(c|)	*	*met(c|)	*	*met(c|)	*	*met(c|)	*
*k[f#c#]	*	*	*	*	*	*	*	*	*	*	*
*^	*	*	*	*	*	*	*	*	*	*	*
!	!	!	!LO:TX:b:i:t=Sibi sponſa	!	!	!	!	!	!	!	!	!
!LO:TX:b:i:t=Sibi sponsam	!	!	!LO:TX:a:t=Vivace	!LO:TX:b:i:t=Sibi sponsam	!	!	!	!	!	!	!	!
8dd\L	2ryy	.	0r	0r	0r	.	0r	.	2r	.	8dd\	Si-
8dd\	.	.	.	.	.	.	.	.	.	.	8dd\	-bi
8dd\	.	.	.	.	.	.	.	.	.	.	8dd\	spon-
8cc#\J	.	.	.	.	.	.	.	.	.	.	8cc#\	-sa(m)
4b/	8g\L	.	.	.	.	.	.	.	8g\	Si-	4b\	in
.	8g\	.	.	.	.	.	.	.	8g\	-bi	.	.
!	!	!	!	!	!	!	!	!	!LO:LB:g=original	!	!	!
!	!	!	!	!	!	!	!	!	!LO:SIC:s=:v:8g	!	!	!
4b/	8g\	.	.	.	.	.	.	.	8f#\	spon-	4b\	qua.
!	!	!	!	!	!	!	!	!	!LO:SIC:s=:v:8f#	!	!	!
.	8f#\J	.	.	.	.	.	.	.	8e\	-sa(m)	.	.
=94	=94	=94	=94	=94	=94	=94	=94	=94	=94	=94	=94	=94
!	!	!	!	!	!	!	!	!	!LO:SIC:s=:v:4e	!	!	!
8ee/L	4e\	.	.	.	.	.	.	.	4d\	in	8ee\	Si-
8ee/	.	.	.	.	.	.	.	.	.	.	8ee\	-bi
!	!	!	!	!	!	!	!	!	!LO:SIC:s=:v:4e	!	!	!
8ee/	4e\	.	.	.	.	.	.	.	4d\	qua	8ee\	spon-
8dd/J	.	.	.	.	.	.	.	.	.	.	8dd\	-sam
!	!	!	!	!	!	!	!	!	!	!	!LO:PB:g=original	!
!	!	!	!	!	!	!	!	!	!LO:SIC:o:s=:v:przekreślony fragment tekstu, nad nim wpisany właściwy	!	!	!
4cc#/	8a\L	.	.	.	.	.	.	.	8a\	A-	4cc#\	in
.	8a\	.	.	.	.	.	.	.	8a\	-da(m)	.	.
4cc#/	8a\	.	.	.	.	.	.	.	8a\	non	4cc#\	qua
.	8g\J	.	.	.	.	.	.	.	8g\	pe-	.	.
=95	=95	=95	=95	=95	=95	=95	=95	=95	=95	=95	=95	=95
8b/L	4f#\	.	1r	1r	1r	.	1r	.	8f#\	-ca-	8b\	A-
8cc#/J	.	.	.	.	.	.	.	.	8f#\	-vit	8b\	-dam
4.dd/	4.f#\	.	.	.	.	.	.	.	4.f#\	non	4.dd\	non
!	!	!	!	!	!	!	!	!	!	!	!LO:SIC:s=:v:pec-	!
8ee/	8g\	.	.	.	.	.	.	.	8g\	pec-	8ee\	pe-
4cc#/	4e\	.	.	.	.	.	.	.	4e\	-ca-	4cc#\	-ca-
!LO:LB:g=original	!	!	!	!	!	!	!	!	!	!	!	!
=96	=96	=96	=96	=96-	=96	=96	=96	=96	=96	=96	=96	=96
8dd/	8f#\L	.	2r	2r	2r	.	8d\	Si-	4f#\	-vit	4dd\	-vit
*clefC4	*	*	*	*	*	*	*	*	*	*	*	*
4.ryy	8d\	.	.	.	.	.	8d\	-bi	.	.	.	.
.	8d\	.	.	.	.	.	8d\	spon-	4r	.	4r	.
.	8c#\J	.	.	.	.	.	8c#\	-sa(m)	.	.	.	.
*clefF4	*	*	*	*	*	*	*	*	*	*	*	*
*k[f#c#]	*	*	*	*	*	*	*	*	*	*	*	*
!	!	!	!	!LO:TX:a:t=Tutti	!	!	!	!	!	!	!	!
8G\L	2ryy	.	4b\	4dd\	8G\	Si-	4B\	in	8g\	Si-	8dd\	Si-
8G\	.	.	.	.	8G\	-bi	.	.	8g\	-bi	8dd\	-bi
8G\	.	.	8r	8r	8G\	spon-	4B\	qua	8g\	spon-	8dd\	spon-
8F#\J	.	.	8dd\	8dd\	8F#\	-sa(m)	.	.	8g\	-sa(m)	8a\	-sam
*v	*v	*	*	*	*	*	*	*	*	*	*	*
=97	=97	=97	=97	=97	=97	=97	=97	=97	=97	=97	=97
!	!	!	!LO:SIC:o:s=:v:po nucie kreska taktowa	!	!	!	!	!	!	!	!
4E\	.	4ee\	4gg\	4E\	in	8e\	si-	4g\	in	4b\	in
.	.	.	.	.	.	8e\	-bi	.	.	.	.
4E\	.	8r	8r	4E\	qua	8e\	spon-	4g\	qua	4b\	qua
.	.	8ee\	8gg\	.	.	8d\	-sa(m)	.	.	.	.
*	*	*	*	*	*ij	*	*	*	*	*	*ij
8A\L	.	4cc#\	4ee\	8A\	Si-	4c#\	in	8a\	si-	8ee\	Si-
8A\	.	.	.	8A\	-bi	.	.	8a\	-bi	8ee\	-bi
8A\	.	8r	8r	8A\	spon-	4c#\	qua	8a\	spon-	8ee\	spon-
8G\J	.	8b\	8ee\	8G\	-sa(m)	.	.	8a\	-sam	(16b\LL	-sam
.	.	.	.	.	.	.	.	.	.	16cc#\JJ)	.
!	!	!	!	!	!	!	!	!LO:LB:g=original	!	!	!
=98	=98	=98	=98	=98	=98	=98	=98	=98	=98	=98	=98
!	!	!LO:TX:a:t=P:mixed beam:problem	!	!	!	!	!	!	!	!	!
4F#\	6	8dd\L	16aa\LL	4F#\	in	2r	.	4a\	in	4dd\	in
.	.	.	16gg\	.	.	.	.	.	.	.	.
.	.	8cc#\	16ff#\	.	.	.	.	.	.	.	.
.	.	.	16gg\JJ	.	.	.	.	.	.	.	.
!	!	!	!LO:TX:a:t=P:mixed beam:problem	!	!	!	!	!	!	!	!
4F#\	.	8dd\	8aa\L	4F#\	qua	.	.	4a\	qua	4dd\	qua
*	*	*	*	*	*Xij	*	*	*	*	*	*Xij
.	.	8d/J	8a/J	.	.	.	.	.	.	.	.
8G\L	.	8g/L	8b\L	8G\	A-	8G/	a-	8g\	A-	8b\	A-
8A\	.	8a/J	8cc#\J	8A\	-da(m)	8A/	-da(m)	8g\	-da(m)	8cc#\	-dam
8B\	.	[y4b/	[4dd\	8B\	non	[y4B\	non	[y4g\	non	[y4dd\	non
8G\J	.	.	.	8G\	pec-	.	.	.	.	.	.
=99	=99	=99	=99	=99	=99	=99	=99	=99	=99	=99	=99
!LO:TX:a:t=P:mixed beam:problem	!	!	!	!LO:TX:a:t=P:mixed beam:problem	!	!	!	!LO:N:xstem:cue	!	!LO:N:xstem:cue	!
!	!	!LO:N:xstem:cue	!LO:N:xstem:cue	!	!	!LO:N:xstem:cue	!	!	!	!	!
8A\L	.	8b/]	16dd\]	8A\L	-ca-	8B\]	.	8g\]	.	8dd\]	.
.	.	.	16ff#\LL	.	.	.	.	.	.	.	.
!	!	!	!	!	!	!	!	!	!	!LO:LB:g=original	!
!	!	!	!	!	!	!	!	!LO:SIC:s=:v:pec-	!	!	!
8G\	.	8a/	16ee\	8G\	.	8B\	pe-	8f#\	pe-	8ee\	pec-
.	.	.	16dd\JJ	.	.	.	.	.	.	.	.
8A\	.	4a/	16cc#\LL	8A\	.	4A\	-ca-	4e\	-ca-	4cc#\	-ca-
.	.	.	16dd\	.	.	.	.	.	.	.	.
8AA/J	.	.	16b\	8AA/J	.	.	.	.	.	.	.
.	.	.	16cc#\JJ	.	.	.	.	.	.	.	.
4D/	.	8f#/L	8dd\L	4D/	-vit	4A\	-vit	4f#\	-vit	4dd\	-vit
.	.	8f#/	8dd\	.	.	.	.	.	.	.	.
4r	.	8f#/	8dd\	4r	.	4r	.	4r	.	4r	.
.	.	8f#/J	8cc#\J	.	.	.	.	.	.	.	.
!	!	!LO:LB:g=original	!	!	!	!LO:LB:g=original	!	!	!	!	!
=100	=100	=100	=100	=100	=100	=100	=100	=100	=100	=100	=100
!	!	!LO:SIC:o:s=:v:brak jednego taktu	!	!	!	!	!	!	!	!	!
8G\L	.	1ryy	4b/	0r	.	0r	.	0r	.	0r	.
8G\	.	.	.	.	.	.	.	.	.	.	.
8G\	.	.	4r	.	.	.	.	.	.	.	.
8F#\J	.	.	.	.	.	.	.	.	.	.	.
4E\	.	.	8ee\L	.	.	.	.	.	.	.	.
.	.	.	8ee\	.	.	.	.	.	.	.	.
4r	.	.	8ee\	.	.	.	.	.	.	.	.
.	.	.	8dd\J	.	.	.	.	.	.	.	.
!LO:LB:g=original	!	!	!LO:LB:g=original	!	!	!	!	!	!	!	!
=101	=101	=101	=101	=101	=101	=101	=101	=101	=101	=101	=101
8A\L	.	4a/	4cc#\	.	.	.	.	.	.	.	.
8A\	.	.	.	.	.	.	.	.	.	.	.
8A\	.	4r	4r	.	.	.	.	.	.	.	.
8G\J	.	.	.	.	.	.	.	.	.	.	.
4F#\	6	8dd\L	8ff#\L	.	.	.	.	.	.	.	.
.	.	8dd\	8ff#\	.	.	.	.	.	.	.	.
4r	.	8dd\	8ff#\	.	.	.	.	.	.	.	.
!	!	!LO:SIC:o:s=:v:brak kreski taktowej	!	!	!	!	!	!	!	!	!
.	.	8cc#\J	8ee\J	.	.	.	.	.	.	.	.
=102	=102	=102	=102	=102	=102	=102	=102	=102	=102	=102	=102
!LO:TX:a:t=P:mixed beam:problem	!	!	!	!	!	!	!	!	!	!	!
8C#\L	.	8b\L	16dd\LL	1r	.	1r	.	1r	.	2r	.
.	.	.	16ee\	.	.	.	.	.	.	.	.
8D\	.	8a\J	16cc#\	.	.	.	.	.	.	.	.
.	.	.	16dd\JJ	.	.	.	.	.	.	.	.
8E\	.	4g#X/	8.b/L	.	.	.	.	.	.	.	.
8EE/J	.	.	.	.	.	.	.	.	.	.	.
.	.	.	16a/Jk	.	.	.	.	.	.	.	.
!LO:TX:a:t=P:mixed beam:problem	!	!	!	!	!	!	!	!	!	!	!
8AA/L	.	4a/	4a/	.	.	.	.	.	.	8ee\	Si-
*clefC1	*	*	*	*	*	*	*	*	*	*	*
*k[f#c#]	*	*	*	*	*	*	*	*	*	*	*
8ee\	.	.	.	.	.	.	.	.	.	8ee\	-bi
8ee\	.	4r	4r	.	.	.	.	.	.	8ee\	spon-
8dd\J	.	.	.	.	.	.	.	.	.	8dd\	-sam
!	!	!	!	!LO:LB:g=original	!	!	!	!	!	!	!
=103	=103	=103	=103	=103	=103	=103	=103	=103	=103	=103	=103
8cc#\L	.	4cc#\	4ee\	8A\	Si-	8c#\	si-	8e\	Si-	4cc#\	in
*clefF4	*	*	*	*	*	*	*	*	*	*	*
*k[f#c#]	*	*	*	*	*	*	*	*	*	*	*
8A\	.	.	.	8A\	-bi	8c#\	-bi	8e\	-bi	.	.
8A\	.	8r	8r	8A\	spon-	8c#\	spon-	8e\	spon-	4cc#\	qua
8G#X\J	6	8b\	8ee\	8G#X\	-sa(m)	8B\	-sa(m)	8e\	-sa(m)	.	.
*	*	*	*	*	*	*	*	*	*	*	*ij
4F#\	6	4a/	4dd\	4F#\	in	4A\	in	4f#\	in	8dd\	Si-
.	.	.	.	.	.	.	.	.	.	8dd\	-bi
!	!	!	!LO:SIC:o:s=:v:po pauzie przekreślona kreska taktowa	!	!	!	!	!	!	!	!
4F#\	.	8r	8r	4F#\	qua.	4A\	qua	4f#\	qua	8dd\	spon-
.	.	8a/	8dd\	.	.	.	.	.	.	8cc#\	-sam
=104	=104	=104	=104	=104	=104	=104	=104	=104	=104	=104	=104
*	*	*	*	*	*ij	*	*ij	*	*	*	*
8G#X\L	6	4e/	4b\	8G#X\	Si-	8B\	si-	8e\	Si-	4b\	in
8G#\	.	.	.	8G#\	-bi	8B\	-bi	8e\	-bi	.	.
8G#\	.	8r	8r	8G#\	spon-	8B\	spon-	8e\	spon-	4b\	qua
*	*	*	*	*	*	*	*	*	*	*	*Xij
8F#\J	.	8f#/	8a/	8F#\	-sa(m)	8A/	-sa(m)	8f#\	-sa(m)	.	.
!	!	!LO:TX:a:t=P:mixed beam:problem	!LO:TX:a:t=P:mixed beam:problem	!	!	!	!	!	!	!	!
4E\	.	8g#X/L	8b/L	4E\	in	4B\	in	4g#X\	in	2r	.
.	.	8ee\J	8gg#X\J	.	.	.	.	.	.	.	.
4E\	.	4ee\	4gg#\	4E\	qua.	4B\	qua	4g#\	qua	.	.
*	*	*	*	*	*Xij	*	*Xij	*	*	*	*
=105	=105	=105	=105	=105	=105	=105	=105	=105	=105	=105	=105
*	*	*	*	*	*	*	*	*	*ij	*	*
8D\L	.	8dd\L	8ff#\L	8D\	a-	8d\	A-	8f#\	Si-	8a\	A-
!	!	!	!LO:SIC:o:s=:v:krzyżyk nad nutą	!	!	!	!	!	!	!	!
8E\	.	8ee\	8gg#X\	8E\	-da(m)	8e\	-da(m)	8f#\	-bi	8a\	-da(m)
8F#\	.	8ff#\	8aa\	8F#\	non	8d\	non	8f#\	spon-	8a\	non
!	!	!	!	!	!	!	!	!	!	!LO:SIC:s=:v:pec-	!
8D\J	.	8dd\J	8ff#\J	8D\	pec-	8c#\	pec-	8f#\	-sa(m)	8a\	pe-
!LO:TX:a:t=P:mixed beam:problem	!	!	!LO:SIC:o:s=:v:krzyżyk nad nutą	!LO:TX:a:t=P:mixed beam:problem	!	!	!	!	!	!	!
8E\L	6	8b\L	8gg#X\L	8E\L	-ca-	(8B\L	-ca-	(8g#X\L	in	(8b\L	-ca-
8D\	5	8cc#\J	8aa\J	8D\	.	8c#\J)	.	8a\J)	.	8cc#\J)	.
!	!	!	!LO:SIC:o:s=:v:krzyżyk nad nutą	!	!	!	!	!	!	!	!
8E\	4	4b\	4gg#X\	8E\	.	4B\	-vit	4g#X\	qua	4b\	-vit
8EE/J	3	.	.	8EE/J	.	.	.	.	.	.	.
*	*	*	*	*	*	*	*	*	*Xij	*	*
!LO:LB:g=original	!	!	!	!	!	!	!	!LO:LB:g=original	!	!LO:LB:g=original	!
=106	=106	=106	=106	=106	=106	=106	=106	=106	=106	=106	=106
!LO:TX:a:t=P:mixed beam:problem	!	!	!	!	!	!	!	!	!	!	!
8AA/L	.	4cc#\	4aa\	8AA/	-vit	8A/	.	8a\	.	8a\	vit
8A\J	.	.	.	8A\	A-	8A\	A-	8e\	A-	8cc#\	a-
!	!	!	!	!	!	!LO:LB:g=original	!	!	!	!	!
4G#X\	6	4r	4r	4G#X\	-da(m)	4B\	-dam	4e\	-da(m)	4b\	-dam
8A\L	6	2r	2r	8A\	n(on)	8c#\	n(on)	8e\	non	8cc#\	n(on)
!	!	!	!	!	!	!	!	!LO:SIC:s=:v:pec-	!	!	!
8D\J	5	.	.	8D/	pec-	8d\	pec-	8f#\	pe-	8a\	pec-
4E\	4	.	.	4E\	-ca-	4B/	-ca-	4e\	-ca-	4b\	-ca-
.	3	.	.	.	.	.	.	.	.	.	.
!	!	!	!	!LO:LB:g=original	!	!	!	!	!	!	!
=107	=107	=107	=107	=107	=107	=107	=107	=107	=107	=107	=107
4AA/	.	8r	8r	4AA/	-vit	4A/	-vit	4e\	-vit	4a\	-vit
.	.	8ee\	16aa\LL	.	.	.	.	.	.	.	.
!	!	!	!LO:SIC:s=:v:16gg#	!	!	!	!	!	!	!	!
.	.	.	16gg\JJ	.	.	.	.	.	.	.	.
8r	.	16dd\LL	16ff#\LL	4r	.	4r	.	4r	.	4r	.
.	.	16cc#\	16ee\	.	.	.	.	.	.	.	.
8D\	.	16b\	16dd\	.	.	.	.	.	.	.	.
.	.	16a\JJ	16cc#\JJ	.	.	.	.	.	.	.	.
!LO:TX:a:t=P:mixed beam:problem	!	!LO:SIC:s=:v:8g#	!	!	!	!	!	!	!	!	!
8E\L	6	8g/L	8b\L	2r	.	2r	.	2r	.	2r	.
8D\	5	8a/	8cc#\J	.	.	.	.	.	.	.	.
8E\	4	8a/	8.b/L	.	.	.	.	.	.	.	.
!	!	!LO:SIC:s=:v:8g#	!	!	!	!	!	!	!	!	!
8EE/J	3	8g/J	.	.	.	.	.	.	.	.	.
.	.	.	16a/Jk	.	.	.	.	.	.	.	.
=108	=108	=108	=108	=108	=108	=108	=108	=108	=108	=108	=108
8AA/L	.	4a/	4a/	8r	.	8r	.	8r	.	8r	.
8D/J	.	.	.	8d\	A-	8d\	A-	8f#\	A-	8a\	a-
4C#/	6	4r	4r	4c#\	-dam	4c#\	-dam	4e\	-dam	4a\	-da(m)
!LO:TX:a:t=P:mixed beam:problem	!	!	!	!	!	!	!	!	!	!	!
8D\L	5	2r	2r	8d\	n(on)	8d\	non	8f#\	n(on)	8a\	non
8G\	6	.	.	8G\	pec-	8B\	pec-	8g\	pec-	8b\	pec-
8A\	4	.	.	4A\	-ca-	4c#\	-ca-	4e\	-ca-	4a\	-ca-
8AA/J	3	.	.	.	.	.	.	.	.	.	.
!	!	!LO:PB:g=original	!LO:PB:g=original	!	!	!	!	!	!	!	!
=109	=109	=109	=109	=109	=109	=109	=109	=109	=109	=109	=109
4D/	.	8r	8r	4D/	-vit	4d\	-vit	4f#\	-vit	4a\	-vit
.	.	8a/	16dd\LL	.	.	.	.	.	.	.	.
.	.	.	16cc#\JJ	.	.	.	.	.	.	.	.
8r	.	16g/LL	16b/LL	4r	.	4r	.	4r	.	4r	.
.	.	16f#/	16a/	.	.	.	.	.	.	.	.
8G\	.	16e/	16g/	.	.	.	.	.	.	.	.
.	.	16d/JJ	16f#/JJ	.	.	.	.	.	.	.	.
!LO:TX:a:t=P:mixed beam:problem	!	!	!	!	!	!	!	!	!	!	!
8A\L	6	8c#/L	8e/L	2r	.	2r	.	2r	.	2r	.
8G\	5	8d/	8f#/	.	.	.	.	.	.	.	.
8A\	4	8.d/	8e/	.	.	.	.	.	.	.	.
8AA/J	3	.	8d/J	.	.	.	.	.	.	.	.
.	.	16c#/Jk	.	.	.	.	.	.	.	.	.
=110	=110	=110	=110	=110	=110	=110	=110	=110	=110	=110	=110
!	!	!LO:TX:a:t=P:mixed beam:problem	!LO:TX:a:t=P:mixed beam:problem	!	!	!	!	!	!	!	!
4D/	.	8d/L	8d/L	8r	.	8r	.	8r	.	8r	.
!	!	!	!LO:SIC:s=:v:8ff#&colon;t=lub aa	!	!	!	!	!	!	!	!
*	*	*	*	*	*	*	*	*	*ij	*	*
.	.	8ff#\J	8gg\J	8d\	a-	8d\	A-	8f#\	A-	8a\	a-
4C#/	6	4ee\	4aa\	4c#\	-dam	4c#\	-da(m)	4e\	-dam	4a\	-dam
!LO:TX:a:t=P:mixed beam:problem	!	!	!	!	!	!	!	!	!	!	!
8D\L	.	8ff#\L	8aa\L	8d\	non	8d\	non	8f#\	n(on)	8a\	non
8G\	.	8b\J	8dd\J	8G\	pec-	8B\	pec-	8g\	pec-	8b\	pec-
8A\	4	8a/L	8.cc#\L	4A\	-ca-	4c#\	-ca-	4e\	-ca-	4a\	-ca-
8AA\J	3	8e/J	.	.	.	.	.	.	.	.	.
.	.	.	16cc#\Jk	.	.	.	.	.	.	.	.
=111	=111	=111	=111	=111	=111	=111	=111	=111	=111	=111	=111
4D/	.	4f#/	4dd\	4D/	-vit	4d\	-vit	4f#\	-vit	4a\	-vit
4r	.	4r	4r	4r	.	4r	.	4r	.	4r	.
!	!	!	!	!LO:SIC:o:s=:v:podwójna kreska taktowa i obustronny znak repetycji	!	!	!	!	!	!	!
2r	.	2r	2r	2r	.	2r	.	2r	.	2r	.
==	==	==	==	==:||:	==	==	==	==	==	==	==
*-	*-	*-	*-	*-	*-	*-	*-	*-	*-	*-	*-
!!!system-decoration: s1,s2,s3,s4,s5,s6,s7
!!!EED: Leszek Kubiak
!!!EST: 2020-10-27
!!!ENC: Andrzej Borzym
!!!END: 2020-04-24
